/* XPM */
static char * crystal_wall_xpm[] = {
"64 64 1662 2",
"  	c #5C17C6",
". 	c #5C17C7",
"+ 	c #5B17C6",
"@ 	c #5B17C5",
"# 	c #5B16C4",
"$ 	c #5A16C4",
"% 	c #5A16C3",
"& 	c #5A1BC1",
"* 	c #532EA8",
"= 	c #5D20C6",
"- 	c #6356AC",
"; 	c #6A8182",
"> 	c #7E89B1",
", 	c #5E28C4",
"' 	c #5D1DC7",
") 	c #859DB3",
"! 	c #86A6A9",
"~ 	c #90AEB0",
"{ 	c #96B0C3",
"] 	c #5E32C0",
"^ 	c #614DBB",
"/ 	c #A4CFD2",
"( 	c #91B1B1",
"_ 	c #A8C5C7",
": 	c #96BFC0",
"< 	c #ADCFD9",
"[ 	c #674FC0",
"} 	c #5B16C5",
"| 	c #5C19C7",
"1 	c #88A9CB",
"2 	c #8BC9D5",
"3 	c #9FC3C6",
"4 	c #AFDFDE",
"5 	c #99BEC1",
"6 	c #A3D4D6",
"7 	c #B5DFE4",
"8 	c #706BBD",
"9 	c #5D2CC0",
"0 	c #81C3DB",
"a 	c #63AEC4",
"b 	c #8FBCC2",
"c 	c #AAE0E3",
"d 	c #BAEBEC",
"e 	c #95BDC0",
"f 	c #A6DEE1",
"g 	c #BDEEF2",
"h 	c #8386C5",
"i 	c #5C18C5",
"j 	c #5A16C2",
"k 	c #7285C2",
"l 	c #52ADD4",
"m 	c #2D80AB",
"n 	c #7DB4BC",
"o 	c #B0ECF6",
"p 	c #A3E3E4",
"q 	c #AAD5D9",
"r 	c #9DCDCF",
"s 	c #ACEAEC",
"t 	c #C0EFF2",
"u 	c #91A3CC",
"v 	c #5C1FC3",
"w 	c #5916C1",
"x 	c #5B1AC5",
"y 	c #81BBD8",
"z 	c #127EBA",
"A 	c #0B5896",
"B 	c #76ADC1",
"C 	c #9AE9FC",
"D 	c #91DAE3",
"E 	c #AFF2F8",
"F 	c #8CBABE",
"G 	c #96D5D9",
"H 	c #A9EFF5",
"I 	c #B9F3F8",
"J 	c #9FBDD2",
"K 	c #5F36C0",
"L 	c #5916C2",
"M 	c #655FBC",
"N 	c #6DC4E8",
"O 	c #0E6FA9",
"P 	c #005691",
"Q 	c #74A8C4",
"R 	c #85E2F9",
"S 	c #83D8EA",
"T 	c #92E4F3",
"U 	c #A3E4F1",
"V 	c #8AC0C6",
"W 	c #81CDDD",
"X 	c #9FEBF8",
"Y 	c #AFF2FB",
"Z 	c #AFD4E2",
"` 	c #6954BD",
" .	c #5916C0",
"..	c #5D1BC7",
"+.	c #85B0CD",
"@.	c #36A9DF",
"#.	c #0D5D9C",
"$.	c #025B9D",
"%.	c #73ACBD",
"&.	c #6FD6F3",
"*.	c #68C9E9",
"=.	c #72CAE4",
"-.	c #85E3F8",
";.	c #99CFD7",
">.	c #7FCCD6",
",.	c #67C9DC",
"'.	c #89E4FC",
").	c #9FEAFD",
"!.	c #A6D6DC",
"~.	c #592EB6",
"{.	c #5816C0",
"].	c #5C3CB9",
"^.	c #80D0E4",
"/.	c #0F9CE1",
"(.	c #094A8C",
"_.	c #045CA2",
":.	c #76B7C2",
"<.	c #62C6E7",
"[.	c #2780B6",
"}.	c #4BA8D1",
"|.	c #69DCF8",
"1.	c #84DCF5",
"2.	c #89BFC5",
"3.	c #66B7D0",
"4.	c #57C2E9",
"5.	c #77DCF6",
"6.	c #9BC3C8",
"7.	c #8A88C0",
"8.	c #7F99C2",
"9.	c #58C4F0",
"0.	c #1495DE",
"a.	c #023D78",
"b.	c #0A5BA5",
"c.	c #81C4CF",
"d.	c #63C2E3",
"e.	c #0E5B97",
"f.	c #2A82B6",
"g.	c #4CC2E6",
"h.	c #56D3FA",
"i.	c #8CD8EB",
"j.	c #75A5B4",
"k.	c #2775A4",
"l.	c #8ED1E1",
"m.	c #9AC3C6",
"n.	c #8FABC9",
"o.	c #5C1AC7",
"p.	c #5D29C2",
"q.	c #8BCCDB",
"r.	c #1FB1EE",
"s.	c #1390D2",
"t.	c #033A7D",
"u.	c #0E5B9F",
"v.	c #80C5CF",
"w.	c #6BC1E2",
"x.	c #0A5692",
"y.	c #1A68A8",
"z.	c #31A5DB",
"A.	c #3BCAF9",
"B.	c #4ACBF6",
"C.	c #88C9D5",
"D.	c #71A9BD",
"E.	c #84AFB8",
"F.	c #8BBED2",
"G.	c #80ADC3",
"H.	c #5D25C5",
"I.	c #6B70B8",
"J.	c #7CD9F2",
"K.	c #0EB0F7",
"L.	c #1585C5",
"M.	c #033E82",
"N.	c #195F9E",
"O.	c #7EC5CE",
"P.	c #75C7DF",
"Q.	c #085FA1",
"R.	c #095595",
"S.	c #1D8BC5",
"T.	c #2DB9F0",
"U.	c #2CBAF0",
"V.	c #69C9E5",
"W.	c #91B8BB",
"X.	c #99B8BD",
"Y.	c #3B81A8",
"Z.	c #77B5D0",
"`.	c #6143BD",
" +	c #5C19C6",
".+	c #85A7BC",
"++	c #5BC9E9",
"@+	c #11B0FA",
"#+	c #137DBD",
"$+	c #044793",
"%+	c #1D63A6",
"&+	c #85C6D4",
"*+	c #81D2E6",
"=+	c #0971B7",
"-+	c #0458A2",
";+	c #2A88CB",
">+	c #5AADD6",
",+	c #6AB3C9",
"'+	c #74A6BA",
")+	c #819FA9",
"!+	c #7C9CAF",
"~+	c #124E7C",
"{+	c #5EAEDE",
"]+	c #686BB7",
"^+	c #87B5C2",
"/+	c #5DABBB",
"(+	c #51AAC5",
"_+	c #377FA3",
":+	c #185F9E",
"<+	c #2C75B0",
"[+	c #8CCBDD",
"}+	c #99DADF",
"|+	c #6EAFD2",
"1+	c #5D94AF",
"2+	c #73ABC0",
"3+	c #567F93",
"4+	c #3E5D7F",
"5+	c #1D406D",
"6+	c #4A6A91",
"7+	c #7AA2B0",
"8+	c #1C365C",
"9+	c #1E7BB6",
"0+	c #6A92C3",
"a+	c #6029C6",
"b+	c #5B1DC3",
"c+	c #8BB9D3",
"d+	c #5BBEE7",
"e+	c #1EA8EE",
"f+	c #2498D3",
"g+	c #27A8E2",
"h+	c #2DA2D1",
"i+	c #68A7B5",
"j+	c #7EA8B0",
"k+	c #7EBED3",
"l+	c #59BFEB",
"m+	c #29A8EE",
"n+	c #126EAC",
"o+	c #05285E",
"p+	c #01295E",
"q+	c #022F63",
"r+	c #739DAE",
"s+	c #4E637D",
"t+	c #0B5B98",
"u+	c #5E98C0",
"v+	c #5F23C7",
"w+	c #5F29C4",
"x+	c #6D57B7",
"y+	c #7C81B4",
"z+	c #97ADC8",
"A+	c #A1BDC7",
"B+	c #7779A9",
"C+	c #7BA2C5",
"D+	c #5DBDDE",
"E+	c #1B9DE2",
"F+	c #0A74B8",
"G+	c #068BD4",
"H+	c #09AEF7",
"I+	c #58BAE4",
"J+	c #87C0CD",
"K+	c #0FB0F2",
"L+	c #0DAEFA",
"M+	c #0DA5F1",
"N+	c #0E73AB",
"O+	c #032A63",
"P+	c #02275B",
"Q+	c #022B65",
"R+	c #5E88A7",
"S+	c #658A9A",
"T+	c #0E5A93",
"U+	c #4BAAD7",
"V+	c #6035C1",
"W+	c #5A20C3",
"X+	c #4F52A1",
"Y+	c #96AFBB",
"Z+	c #B9EAE9",
"`+	c #BCF6F7",
" @	c #99DBE2",
".@	c #A5DDE1",
"+@	c #656A9D",
"@@	c #768AC3",
"#@	c #499CC9",
"$@	c #0D79C7",
"%@	c #095A9D",
"&@	c #0E7BC1",
"*@	c #0EAFF8",
"=@	c #44B9EB",
"-@	c #7EC2C7",
";@	c #26B6F3",
">@	c #0FAFF3",
",@	c #0CA6F0",
"'@	c #1275BA",
")@	c #042D64",
"!@	c #01255A",
"~@	c #042864",
"{@	c #1A4982",
"]@	c #7FA8B6",
"^@	c #3F77A3",
"/@	c #3AB0E3",
"(@	c #6258BC",
"_@	c #644ABD",
":@	c #657EA2",
"<@	c #4081A9",
"[@	c #2A6B9A",
"}@	c #3C5C7E",
"|@	c #5E8A97",
"1@	c #6CAAB8",
"2@	c #92B8BF",
"3@	c #7D84B5",
"4@	c #6565B5",
"5@	c #63A2BE",
"6@	c #034D93",
"7@	c #074A8C",
"8@	c #0A7CC0",
"9@	c #0AB0F8",
"0@	c #1FB0EF",
"a@	c #7CBDC4",
"b@	c #50C0F1",
"c@	c #08B1F8",
"d@	c #09AAF1",
"e@	c #1284C4",
"f@	c #06326C",
"g@	c #02275F",
"h@	c #052966",
"i@	c #054288",
"j@	c #79A7BC",
"k@	c #5E8EA8",
"l@	c #23A3DD",
"m@	c #51699E",
"n@	c #5E1FC7",
"o@	c #5C1AC6",
"p@	c #767FC5",
"q@	c #B3DFE5",
"r@	c #9BC4C4",
"s@	c #C0F4F7",
"t@	c #AEE6EC",
"u@	c #87BEC3",
"v@	c #93C7CF",
"w@	c #87B5BA",
"x@	c #819CA2",
"y@	c #514898",
"z@	c #5E43B3",
"A@	c #76AABD",
"B@	c #053773",
"C@	c #064380",
"D@	c #1388CA",
"E@	c #0CB0F8",
"F@	c #0AA6EA",
"G@	c #6EB5C8",
"H@	c #64C5E6",
"I@	c #0CAEF6",
"J@	c #0CA5EE",
"K@	c #1092D2",
"L@	c #073777",
"M@	c #022D67",
"N@	c #053370",
"O@	c #08539B",
"P@	c #458ABD",
"Q@	c #87B5C0",
"R@	c #2B94C6",
"S@	c #3D6A88",
"T@	c #624AB7",
"U@	c #5D31C1",
"V@	c #91ADCC",
"W@	c #B8F0F3",
"X@	c #8FBFC2",
"Y@	c #C2EBF1",
"Z@	c #BCF1F7",
"`@	c #A4DAE0",
" #	c #B1F3F7",
".#	c #A4F2FC",
"+#	c #ACDFEA",
"@#	c #6D8899",
"##	c #462B97",
"$#	c #5F3DBE",
"%#	c #749FB0",
"&#	c #022C61",
"*#	c #033F7A",
"=#	c #1690D4",
"-#	c #0DAEF4",
";#	c #0A9ADF",
">#	c #56ACD0",
",#	c #63B9D1",
"'#	c #0EA5EC",
")#	c #0C9BE4",
"!#	c #0F97DA",
"~#	c #074182",
"{#	c #013470",
"]#	c #063C7D",
"^#	c #065EA5",
"/#	c #0C7ECB",
"(#	c #82AFC2",
"_#	c #57A2BE",
":#	c #39749A",
"<#	c #89A4BB",
"[#	c #5E27C5",
"}#	c #5C18C7",
"|#	c #6C63BF",
"1#	c #A5D6DF",
"2#	c #B7F2F8",
"3#	c #9BCBCF",
"4#	c #B5E5E8",
"5#	c #B5EDF1",
"6#	c #A1DBE0",
"7#	c #A8EEFB",
"8#	c #98E8FC",
"9#	c #70D6F3",
"0#	c #75B8C4",
"a#	c #446380",
"b#	c #48219E",
"c#	c #602CC7",
"d#	c #799BB3",
"e#	c #012457",
"f#	c #044781",
"g#	c #1896DC",
"h#	c #0BA9EB",
"i#	c #078AD8",
"j#	c #369DD1",
"k#	c #62AFC6",
"l#	c #0B94DC",
"m#	c #0892D9",
"n#	c #0E95DC",
"o#	c #0A5190",
"p#	c #023B7B",
"q#	c #095A9C",
"r#	c #0B68B5",
"s#	c #0686D5",
"t#	c #5DA5CD",
"u#	c #6293A1",
"v#	c #327DA5",
"w#	c #91C8D1",
"x#	c #7272B7",
"y#	c #5C23C2",
"z#	c #849BC6",
"A#	c #ADECEF",
"B#	c #AFF2F7",
"C#	c #A0DCDF",
"D#	c #A8D6D8",
"E#	c #AFE7EA",
"F#	c #9ADCE4",
"G#	c #9AE9F8",
"H#	c #7FD9F6",
"I#	c #57B4E2",
"J#	c #3D90C4",
"K#	c #618DA4",
"L#	c #0A3168",
"M#	c #4A1EA3",
"N#	c #7F95B2",
"O#	c #011F51",
"P#	c #044E88",
"Q#	c #1592D8",
"R#	c #0E9EE2",
"S#	c #036EBD",
"T#	c #1580C2",
"U#	c #5EA6BF",
"V#	c #1282C8",
"W#	c #0B85CB",
"X#	c #1197DE",
"Y#	c #0A63A0",
"Z#	c #02448A",
"`#	c #067BBD",
" $	c #0B7CC8",
".$	c #1191DB",
"+$	c #5995B8",
"@$	c #81A6B1",
"#$	c #3B8AB4",
"$$	c #4DA4C0",
"%$	c #A9D5DD",
"&$	c #5D30BF",
"*$	c #604BBB",
"=$	c #8AB2C6",
"-$	c #A3E5F3",
";$	c #A1ECFA",
">$	c #9DE4E9",
",$	c #97C6C9",
"'$	c #A1DEE5",
")$	c #8DDDEA",
"!$	c #88E3F8",
"~$	c #6DD1F3",
"{$	c #41A0D2",
"]$	c #075AA1",
"^$	c #678CAA",
"/$	c #2A4C72",
"($	c #042C62",
"_$	c #5125AB",
":$	c #717CAD",
"<$	c #0F2654",
"[$	c #054F8B",
"}$	c #1187D0",
"|$	c #108CD4",
"1$	c #055CA3",
"2$	c #0660AA",
"3$	c #528CAD",
"4$	c #2585C2",
"5$	c #086BB3",
"6$	c #0985CE",
"7$	c #0D75B3",
"8$	c #04539C",
"9$	c #0887CE",
"0$	c #0A8BD8",
"a$	c #4A89B6",
"b$	c #B4D2D7",
"c$	c #76A7B1",
"d$	c #3786B3",
"e$	c #268BBD",
"f$	c #A7E8F4",
"g$	c #859CBF",
"h$	c #5D1AC7",
"i$	c #5C1DC4",
"j$	c #7C81B9",
"k$	c #9FDAE2",
"l$	c #7CCCE3",
"m$	c #69B6D3",
"n$	c #89DFEE",
"o$	c #8BBDC1",
"p$	c #98D5DD",
"q$	c #83DBED",
"r$	c #75DDFD",
"s$	c #60CCF5",
"t$	c #3190C7",
"u$	c #064C93",
"v$	c #022C63",
"w$	c #6F93A9",
"x$	c #083F78",
"y$	c #07295A",
"z$	c #562BB1",
"A$	c #767CB5",
"B$	c #24375B",
"C$	c #084988",
"D$	c #1182CA",
"E$	c #0F7BC2",
"F$	c #03549B",
"G$	c #045197",
"H$	c #25669B",
"I$	c #4797C1",
"J$	c #034B92",
"K$	c #046FB6",
"L$	c #117DC4",
"M$	c #025CA8",
"N$	c #0D87D3",
"O$	c #2788C2",
"P$	c #9FC8CD",
"Q$	c #5A9FBF",
"R$	c #40A3D1",
"S$	c #6BA7C0",
"T$	c #2385B7",
"U$	c #74D0ED",
"V$	c #AAE2EA",
"W$	c #644CBC",
"X$	c #8D98C4",
"Y$	c #A2C3C4",
"Z$	c #A8DDE6",
"`$	c #4A99BE",
" %	c #3E89AF",
".%	c #7CACBA",
"+%	c #8BC9D0",
"@%	c #71DAF1",
"#%	c #60D8FA",
"$%	c #4ECEFB",
"%%	c #2B98D4",
"&%	c #024A87",
"*%	c #042663",
"=%	c #485D7C",
"-%	c #5981A0",
";%	c #083C7D",
">%	c #09366D",
",%	c #5629B3",
"'%	c #6F6AB4",
")%	c #364A69",
"!%	c #0A4889",
"~%	c #0C7BC2",
"{%	c #0D72B7",
"]%	c #045398",
"^%	c #034A8C",
"/%	c #1561A1",
"(%	c #468CB7",
"_%	c #01397A",
":%	c #075BA1",
"<%	c #1481CC",
"[%	c #056BB5",
"}%	c #1787C7",
"|%	c #81B1BB",
"1%	c #69ADBF",
"2%	c #1E9AE1",
"3%	c #0486D2",
"4%	c #7BB4CD",
"5%	c #2989B8",
"6%	c #36AEDD",
"7%	c #86E5FC",
"8%	c #86B2CF",
"9%	c #5E3BBD",
"0%	c #ACE1E8",
"a%	c #B5EFF5",
"b%	c #97BDBF",
"c%	c #99CEDC",
"d%	c #66A3B4",
"e%	c #8DC9D2",
"f%	c #58C1E3",
"g%	c #4BB9DD",
"h%	c #3EB2E0",
"i%	c #2497D1",
"j%	c #055FA0",
"k%	c #052D63",
"l%	c #072056",
"m%	c #668CA3",
"n%	c #216796",
"o%	c #034E96",
"p%	c #094A87",
"q%	c #5524B5",
"r%	c #6650B7",
"s%	c #526781",
"t%	c #074487",
"u%	c #0771B8",
"v%	c #1072B5",
"w%	c #075296",
"x%	c #023E7F",
"y%	c #0F62AC",
"z%	c #417DA8",
"A%	c #033870",
"B%	c #05498B",
"C%	c #0D7DC6",
"D%	c #1178BE",
"E%	c #6293A7",
"F%	c #69AFBD",
"G%	c #359DD7",
"H%	c #0580CB",
"I%	c #0571BD",
"J%	c #5898C8",
"K%	c #4D83A9",
"L%	c #1478AD",
"M%	c #52BEEA",
"N%	c #83D9F5",
"O%	c #7176C0",
"P%	c #87A0C6",
"Q%	c #9AE1F7",
"R%	c #83D8F3",
"S%	c #98DBE7",
"T%	c #8FB2B6",
"U%	c #93BFC0",
"V%	c #94E2E5",
"W%	c #8CCFDA",
"X%	c #79BAD7",
"Y%	c #64A1C7",
"Z%	c #4E7FA3",
"`%	c #3B5C7C",
" &	c #1E3C5A",
".&	c #1E3E61",
"+&	c #6791A8",
"@&	c #1983C7",
"#&	c #097ECD",
"$&	c #0E6CA9",
"%&	c #561EBB",
"&&	c #643CC3",
"*&	c #556685",
"=&	c #043C7E",
"-&	c #0461AC",
";&	c #0B71B6",
">&	c #08559A",
",&	c #043371",
"'&	c #0F589B",
")&	c #3878A5",
"!&	c #093C73",
"~&	c #023A75",
"{&	c #0E6FB5",
"]&	c #39709A",
"^&	c #68A3B1",
"/&	c #3993D0",
"(&	c #0886D4",
"_&	c #0671BF",
":&	c #05549F",
"<&	c #135EA4",
"[&	c #568CAF",
"}&	c #173D6E",
"|&	c #1565A3",
"1&	c #41B5E5",
"2&	c #91CBDB",
"3&	c #5F33C0",
"4&	c #6148BC",
"5&	c #86C1D9",
"6&	c #63B8DC",
"7&	c #53B6E6",
"8&	c #7DD8EC",
"9&	c #8EB9BB",
"0&	c #8FBDCA",
"a&	c #51A0BA",
"b&	c #5999B9",
"c&	c #639BB3",
"d&	c #72A3AB",
"e&	c #7BB0B8",
"f&	c #85BBCA",
"g&	c #86CCD3",
"h&	c #88D0E1",
"i&	c #71ACBD",
"j&	c #1D9FE3",
"k&	c #129CDF",
"l&	c #1E86C5",
"m&	c #5E2AC5",
"n&	c #622DC8",
"o&	c #5D6A93",
"p&	c #023170",
"q&	c #024F97",
"r&	c #0C6CB0",
"s&	c #045A9A",
"t&	c #052C6E",
"u&	c #04468A",
"v&	c #3D6F99",
"w&	c #1B4D82",
"x&	c #05306F",
"y&	c #255685",
"z&	c #639AA6",
"A&	c #3684BB",
"B&	c #0563AC",
"C&	c #0467B2",
"D&	c #0858A1",
"E&	c #023675",
"F&	c #023A7A",
"G&	c #5786A6",
"H&	c #2A4158",
"I&	c #06295B",
"J&	c #0A70B7",
"K&	c #4CB8E5",
"L&	c #7296C1",
"M&	c #7B9CBD",
"N&	c #499DC6",
"O&	c #3795CF",
"P&	c #4BB0DA",
"Q&	c #8CCFD7",
"R&	c #9FD0DD",
"S&	c #59ABCF",
"T&	c #38A7DD",
"U&	c #1C8FD3",
"V&	c #0D69AF",
"W&	c #033472",
"X&	c #052252",
"Y&	c #04254F",
"Z&	c #27496C",
"`&	c #7DB0B9",
" *	c #4B859A",
".*	c #7FBFD4",
"+*	c #41AFE1",
"@*	c #2487C8",
"#*	c #5F28C6",
"$*	c #6170A3",
"%*	c #002662",
"&*	c #02397E",
"**	c #0E64A8",
"=*	c #055598",
"-*	c #032D6B",
";*	c #02346F",
">*	c #294E82",
",*	c #48739E",
"'*	c #0E2B5C",
")*	c #53889C",
"!*	c #4C9AC6",
"~*	c #1067AD",
"{*	c #045199",
"]*	c #034C94",
"^*	c #054388",
"/*	c #022C68",
"(*	c #022A66",
"_*	c #1E4A7A",
":*	c #7198AE",
"<*	c #061C42",
"[*	c #063B76",
"}*	c #0A69B1",
"|*	c #4487A9",
"1*	c #67A8C7",
"2*	c #2483C5",
"3*	c #1D87C9",
"4*	c #81D0E2",
"5*	c #8ABDC5",
"6*	c #63AED6",
"7*	c #2C91CE",
"8*	c #137EC8",
"9*	c #0B7AC6",
"0*	c #034584",
"a*	c #012A59",
"b*	c #01214F",
"c*	c #032255",
"d*	c #76AAB9",
"e*	c #669EB8",
"f*	c #1899DE",
"g*	c #2581B9",
"h*	c #74ACBC",
"i*	c #6CA9CB",
"j*	c #5D1CC6",
"k*	c #626FAD",
"l*	c #0B2D5F",
"m*	c #033171",
"n*	c #095AA0",
"o*	c #085496",
"p*	c #032D6C",
"q*	c #03285B",
"r*	c #08336D",
"s*	c #6485A2",
"t*	c #395E78",
"u*	c #3A7FB7",
"v*	c #076FB9",
"w*	c #0D5EA2",
"x*	c #034488",
"y*	c #023F87",
"z*	c #023678",
"A*	c #002763",
"B*	c #02255E",
"C*	c #052C6C",
"D*	c #76A3BA",
"E*	c #162C45",
"F*	c #031944",
"G*	c #09264E",
"H*	c #6197AD",
"I*	c #1D78B5",
"J*	c #1474BF",
"K*	c #54B0DA",
"L*	c #7CB8BD",
"M*	c #74BDDD",
"N*	c #096EB4",
"O*	c #066FBE",
"P*	c #0667AF",
"Q*	c #043C7D",
"R*	c #032B65",
"S*	c #04255D",
"T*	c #34597D",
"U*	c #90C5CC",
"V*	c #1B72B3",
"W*	c #0C75B8",
"X*	c #0772B4",
"Y*	c #1B7ABC",
"Z*	c #47589B",
"`*	c #5B54AF",
" =	c #253F67",
".=	c #022A64",
"+=	c #04488C",
"@=	c #095290",
"#=	c #00204C",
"$=	c #0A2D61",
"%=	c #5B7D8C",
"&=	c #609AB3",
"*=	c #07539C",
"==	c #045DA9",
"-=	c #0E5499",
";=	c #02377A",
">=	c #033B80",
",=	c #033272",
"'=	c #012560",
")=	c #01245B",
"!=	c #032662",
"~=	c #5C829F",
"{=	c #385775",
"]=	c #04153A",
"^=	c #2E495B",
"/=	c #4B7EAB",
"(=	c #0963B0",
"_=	c #1C7BC4",
":=	c #78BDCB",
"<=	c #7CBBD3",
"[=	c #2380C2",
"}=	c #0A66AC",
"|=	c #03579F",
"1=	c #0969B9",
"2=	c #0760AB",
"3=	c #05488C",
"4=	c #023C7D",
"5=	c #053A73",
"6=	c #80B3CA",
"7=	c #5584A9",
"8=	c #084A8C",
"9=	c #094D95",
"0=	c #492CA8",
"a=	c #5C3FB6",
"b=	c #243E63",
"c=	c #022056",
"d=	c #023573",
"e=	c #0B4C8A",
"f=	c #05306A",
"g=	c #011D48",
"h=	c #07275D",
"i=	c #6F96A5",
"j=	c #5289AC",
"k=	c #043E81",
"l=	c #05529C",
"m=	c #0A4B8F",
"n=	c #02306D",
"o=	c #033474",
"p=	c #012C68",
"q=	c #00225B",
"r=	c #01215A",
"s=	c #02235D",
"t=	c #1E4575",
"u=	c #4D779B",
"v=	c #082652",
"w=	c #4E7492",
"x=	c #065093",
"y=	c #0561AB",
"z=	c #64A7CB",
"A=	c #7AB1C4",
"B=	c #2E8DC1",
"C=	c #0B65AB",
"D=	c #05458C",
"E=	c #044E96",
"F=	c #045EAA",
"G=	c #055CA7",
"H=	c #0560A9",
"I=	c #0459A3",
"J=	c #447EA8",
"K=	c #84B6CE",
"L=	c #127DBD",
"M=	c #094E93",
"N=	c #043D7C",
"O=	c #03346D",
"P=	c #20296C",
"Q=	c #5A1DC2",
"R=	c #5E30C0",
"S=	c #1F345E",
"T=	c #011B4F",
"U=	c #022963",
"V=	c #083E7D",
"W=	c #06326E",
"X=	c #021A48",
"Y=	c #022158",
"Z=	c #4F6B85",
"`=	c #5581A2",
" -	c #02316F",
".-	c #04498E",
"+-	c #07498A",
"@-	c #012C67",
"#-	c #022E6B",
"$-	c #012863",
"%-	c #012159",
"&-	c #011F58",
"*-	c #022157",
"=-	c #012C63",
"--	c #4D7BA0",
";-	c #355984",
">-	c #3B6791",
",-	c #05478A",
"'-	c #356EA5",
")-	c #78ABB8",
"!-	c #55A1D3",
"~-	c #0E60AA",
"{-	c #043B7E",
"]-	c #013879",
"^-	c #064D92",
"/-	c #025AA3",
"(-	c #0765B1",
"_-	c #066BB6",
":-	c #0867B0",
"<-	c #80BDD2",
"[-	c #3581B3",
"}-	c #0E69AF",
"|-	c #033D77",
"1-	c #053776",
"2-	c #072656",
"3-	c #4B25A2",
"4-	c #5E27C6",
"5-	c #292F65",
"6-	c #021B51",
"7-	c #012255",
"8-	c #042E67",
"9-	c #011E51",
"0-	c #324E75",
"a-	c #57859F",
"b-	c #022864",
"c-	c #013673",
"d-	c #08417E",
"e-	c #022760",
"f-	c #002864",
"g-	c #00245E",
"h-	c #011F56",
"i-	c #011D54",
"j-	c #021F55",
"k-	c #00235A",
"l-	c #547DA2",
"m-	c #3C6184",
"n-	c #02326C",
"o-	c #033478",
"p-	c #6290A6",
"q-	c #64A9CE",
"r-	c #1168AA",
"s-	c #044083",
"t-	c #012F6E",
"u-	c #04377B",
"v-	c #023E81",
"w-	c #05549B",
"x-	c #045CA5",
"y-	c #045EA5",
"z-	c #538EBE",
"A-	c #72A9BC",
"B-	c #147EC6",
"C-	c #044F8D",
"D-	c #022B66",
"E-	c #242468",
"F-	c #5C1FC4",
"G-	c #342B75",
"H-	c #03184B",
"I-	c #011B49",
"J-	c #032252",
"K-	c #052B61",
"L-	c #021B49",
"M-	c #011C4C",
"N-	c #0D2C5E",
"O-	c #4C7998",
"P-	c #03225B",
"Q-	c #012A64",
"R-	c #093572",
"S-	c #03245C",
"T-	c #00225D",
"U-	c #012059",
"V-	c #011D53",
"W-	c #021C4E",
"X-	c #021C51",
"Y-	c #031E53",
"Z-	c #33577B",
"`-	c #1D3C65",
" ;	c #052A63",
".;	c #3C5D84",
"+;	c #6C9BB8",
"@;	c #186DA5",
"#;	c #053D80",
"$;	c #022C69",
"%;	c #04306D",
"&;	c #063477",
"*;	c #033776",
"=;	c #054789",
"-;	c #04478B",
";;	c #0E4A85",
">;	c #83B7CB",
",;	c #2277B5",
"';	c #0764AA",
");	c #023268",
"!;	c #022B64",
"~;	c #062353",
"{;	c #49229F",
"];	c #523CB3",
"^;	c #375B80",
"/;	c #7C94BF",
"(;	c #484C76",
"_;	c #041649",
":;	c #011541",
"<;	c #01163F",
"[;	c #032456",
"};	c #031848",
"|;	c #0B2355",
"1;	c #426F92",
"2;	c #012055",
"3;	c #01255F",
"4;	c #093270",
"5;	c #03235E",
"6;	c #011D58",
"7;	c #011E57",
"8;	c #011C51",
"9;	c #011B4D",
"0;	c #021B4B",
"a;	c #051B44",
"b;	c #203A5D",
"c;	c #021E52",
"d;	c #112C5F",
"e;	c #577F9C",
"f;	c #3972A8",
"g;	c #063874",
"h;	c #01265D",
"i;	c #012761",
"j;	c #032F69",
"k;	c #042F6B",
"l;	c #023574",
"m;	c #023473",
"n;	c #6188A4",
"o;	c #5E8FAD",
"p;	c #0B71C2",
"q;	c #033E72",
"r;	c #032455",
"s;	c #032359",
"t;	c #231F61",
"u;	c #5B1BC3",
"v;	c #5C21C5",
"w;	c #345F99",
"x;	c #0E3975",
"y;	c #84C4D4",
"z;	c #8FB8C0",
"A;	c #1B2F4C",
"B;	c #02143A",
"C;	c #010D33",
"D;	c #01153C",
"E;	c #041742",
"F;	c #011240",
"G;	c #051B4C",
"H;	c #355A7C",
"I;	c #011B53",
"J;	c #011F55",
"K;	c #042C63",
"L;	c #022058",
"M;	c #001C54",
"N;	c #001F57",
"O;	c #001C51",
"P;	c #011A4F",
"Q;	c #031B4B",
"R;	c #13274C",
"S;	c #0B1F48",
"T;	c #011E4E",
"U;	c #304D6E",
"V;	c #5284AC",
"W;	c #043F78",
"X;	c #022354",
"Y;	c #011C4E",
"Z;	c #02235A",
"`;	c #01235B",
" >	c #022966",
".>	c #022969",
"+>	c #19376B",
"@>	c #7CA6B5",
"#>	c #166AAA",
"$>	c #042152",
"%>	c #001E4D",
"&>	c #061E4F",
"*>	c #4B22A0",
"=>	c #4F5CBA",
"->	c #196EA7",
";>	c #083974",
">>	c #337EA8",
",>	c #93DFF7",
"'>	c #90C0D0",
")>	c #374B5D",
"!>	c #050C30",
"~>	c #020C30",
"{>	c #041138",
"]>	c #011138",
"^>	c #031542",
"/>	c #2E4C6E",
"(>	c #041F53",
"_>	c #001B4E",
":>	c #03245A",
"<>	c #031F54",
"[>	c #011A54",
"}>	c #001E57",
"|>	c #011B51",
"1>	c #041A4D",
"2>	c #041A44",
"3>	c #14264B",
"4>	c #021743",
"5>	c #072154",
"6>	c #39658B",
"7>	c #0E468D",
"8>	c #02265B",
"9>	c #03194A",
"0>	c #031A49",
"a>	c #011C4F",
"b>	c #011E53",
"c>	c #01255D",
"d>	c #042560",
"e>	c #698BA1",
"f>	c #427195",
"g>	c #065BA6",
"h>	c #062857",
"i>	c #011B45",
"j>	c #031A4C",
"k>	c #271D66",
"l>	c #5B27C3",
"m>	c #2E94D1",
"n>	c #0E588E",
"o>	c #01346B",
"p>	c #216FA8",
"q>	c #4CB4E5",
"r>	c #77D0F0",
"s>	c #85C3D7",
"t>	c #3B5262",
"u>	c #020B29",
"v>	c #020F30",
"w>	c #001030",
"x>	c #03113A",
"y>	c #263E5F",
"z>	c #112A59",
"A>	c #011949",
"B>	c #052054",
"C>	c #031E50",
"D>	c #011952",
"E>	c #001C56",
"F>	c #011A50",
"G>	c #04194B",
"H>	c #0D2145",
"I>	c #05193E",
"J>	c #051A48",
"K>	c #0D315F",
"L>	c #0F4991",
"M>	c #052A5D",
"N>	c #011948",
"O>	c #011643",
"P>	c #011842",
"Q>	c #011644",
"R>	c #021848",
"S>	c #041C4E",
"T>	c #022252",
"U>	c #263F6A",
"V>	c #6D96A6",
"W>	c #105BAA",
"X>	c #043D78",
"Y>	c #021A44",
"Z>	c #01173D",
"`>	c #061843",
" ,	c #4B1CA3",
".,	c #4E5FB8",
"+,	c #209EDC",
"@,	c #085497",
"#,	c #045BA1",
"$,	c #178ACB",
"%,	c #1C83C3",
"&,	c #46ADD3",
"*,	c #4882A4",
"=,	c #0B3254",
"-,	c #060A29",
";,	c #030C2B",
">,	c #010B2F",
",,	c #021039",
"',	c #122749",
"),	c #1C3560",
"!,	c #001647",
"~,	c #051C4E",
"{,	c #031C4F",
"],	c #01174A",
"^,	c #001A52",
"/,	c #001951",
"(,	c #07153F",
"_,	c #0B1A42",
":,	c #081F4C",
"<,	c #094284",
"[,	c #031948",
"},	c #011341",
"|,	c #011441",
"1,	c #00163F",
"2,	c #011744",
"3,	c #021A4B",
"4,	c #031E54",
"5,	c #678899",
"6,	c #265D98",
"7,	c #054E95",
"8,	c #022156",
"9,	c #001539",
"0,	c #03113B",
"a,	c #291B62",
"b,	c #5B19C4",
"c,	c #3754A2",
"d,	c #1870AA",
"e,	c #1770A7",
"f,	c #1379B2",
"g,	c #1A78B0",
"h,	c #1B567A",
"i,	c #155292",
"j,	c #075DA7",
"k,	c #0D4479",
"l,	c #04092A",
"m,	c #020927",
"n,	c #000B2E",
"o,	c #010E35",
"p,	c #091B3B",
"q,	c #1A325C",
"r,	c #03194C",
"s,	c #031B4E",
"t,	c #011546",
"u,	c #01194F",
"v,	c #041A49",
"w,	c #051438",
"x,	c #04133A",
"y,	c #061C4B",
"z,	c #053373",
"A,	c #093B7A",
"B,	c #011C4D",
"C,	c #001340",
"D,	c #00113D",
"E,	c #01123E",
"F,	c #01143F",
"G,	c #3C4D6C",
"H,	c #5E7B9F",
"I,	c #0659A8",
"J,	c #03356C",
"K,	c #061A44",
"L,	c #050E32",
"M,	c #4D1BA6",
"N,	c #4637AB",
"O,	c #0E6AB3",
"P,	c #1275C0",
"Q,	c #088AD9",
"R,	c #0588D3",
"S,	c #104E82",
"T,	c #0B4E90",
"U,	c #056AB4",
"V,	c #095694",
"W,	c #040B2E",
"X,	c #030823",
"Y,	c #010B2C",
"Z,	c #020C2F",
"`,	c #031232",
" '	c #182B57",
".'	c #011748",
"+'	c #021B4D",
"@'	c #011544",
"#'	c #02164B",
"$'	c #04153B",
"%'	c #021138",
"&'	c #051842",
"*'	c #07295F",
"='	c #083E81",
"-'	c #042156",
";'	c #011344",
">'	c #01113B",
",'	c #02133D",
"''	c #011640",
")'	c #041B4B",
"!'	c #617A91",
"~'	c #13539D",
"{'	c #034485",
"]'	c #022356",
"^'	c #02133A",
"/'	c #010E2E",
"('	c #291361",
"_'	c #5B19C5",
":'	c #561EBA",
"<'	c #0E4682",
"['	c #0965A9",
"}'	c #0B7DCB",
"|'	c #0880CF",
"1'	c #16528C",
"2'	c #0E3F79",
"3'	c #0369BE",
"4'	c #0A5094",
"5'	c #051940",
"6'	c #020A26",
"7'	c #030B2D",
"8'	c #020C2E",
"9'	c #011034",
"0'	c #0B1E48",
"a'	c #021849",
"b'	c #001444",
"c'	c #041443",
"d'	c #011031",
"e'	c #03123D",
"f'	c #071B4B",
"g'	c #083C81",
"h'	c #032D68",
"i'	c #02113D",
"j'	c #00123A",
"k'	c #011340",
"l'	c #051341",
"m'	c #031744",
"n'	c #051748",
"o'	c #3B5074",
"p'	c #416190",
"q'	c #054B96",
"r'	c #042E65",
"s'	c #031D50",
"t'	c #001233",
"u'	c #060E30",
"v'	c #4D18A8",
"w'	c #272A76",
"x'	c #0B569A",
"y'	c #0A6BB9",
"z'	c #0776C7",
"A'	c #0C4680",
"B'	c #10376A",
"C'	c #055CAB",
"D'	c #084D92",
"E'	c #07214E",
"F'	c #020E2B",
"G'	c #010C2E",
"H'	c #020F32",
"I'	c #03133B",
"J'	c #001645",
"K'	c #021747",
"L'	c #031039",
"M'	c #011135",
"N'	c #05183C",
"O'	c #0A336D",
"P'	c #06367A",
"Q'	c #00143E",
"R'	c #02133B",
"S'	c #02143C",
"T'	c #02153F",
"U'	c #011845",
"V'	c #031D4F",
"W'	c #0A1F49",
"X'	c #3D577B",
"Y'	c #0B4D95",
"Z'	c #033879",
"`'	c #031F4E",
" )	c #00153E",
".)	c #001037",
"+)	c #2E156C",
"@)	c #3F2090",
"#)	c #083C75",
"$)	c #0A569D",
"%)	c #0665B3",
"&)	c #093A70",
"*)	c #061F4E",
"=)	c #0A4E94",
"-)	c #044991",
";)	c #07275A",
">)	c #000F2D",
",)	c #020B2C",
"')	c #010C2D",
"))	c #020D2F",
"!)	c #031036",
"~)	c #001643",
"{)	c #021845",
"])	c #04123A",
"^)	c #030E31",
"/)	c #04143F",
"()	c #052459",
"_)	c #073C83",
":)	c #01235D",
"<)	c #00174A",
"[)	c #021644",
"})	c #021543",
"|)	c #02194D",
"1)	c #021A4E",
"2)	c #0C2348",
"3)	c #446175",
"4)	c #537694",
"5)	c #6685AA",
"6)	c #204678",
"7)	c #02428A",
"8)	c #042558",
"9)	c #011540",
"0)	c #020F2F",
"a)	c #050F38",
"b)	c #4F1DAA",
"c)	c #521BB2",
"d)	c #012150",
"e)	c #064080",
"f)	c #0856A0",
"g)	c #093369",
"h)	c #061A45",
"i)	c #093E7D",
"j)	c #03428B",
"k)	c #04275E",
"l)	c #021033",
"m)	c #020C2A",
"n)	c #010D2B",
"o)	c #040F37",
"p)	c #011742",
"q)	c #031745",
"r)	c #381981",
"s)	c #40188F",
"t)	c #081C4A",
"u)	c #07377E",
"v)	c #033075",
"w)	c #031D55",
"x)	c #041A4F",
"y)	c #021847",
"z)	c #243754",
"A)	c #4B667C",
"B)	c #537B97",
"C)	c #5E8CB7",
"D)	c #4C89BB",
"E)	c #3E83B8",
"F)	c #2F5D86",
"G)	c #123C7B",
"H)	c #06316F",
"I)	c #031A46",
"J)	c #010E36",
"K)	c #040E31",
"L)	c #2D1A67",
"M)	c #5C1CC6",
"N)	c #49328F",
"O)	c #5B1AC4",
"P)	c #1D1653",
"Q)	c #03295A",
"R)	c #054487",
"S)	c #0A2D60",
"T)	c #04143B",
"U)	c #0A2E63",
"V)	c #063B85",
"W)	c #032660",
"X)	c #081337",
"Y)	c #120E3C",
"Z)	c #020B2F",
"`)	c #010E31",
" !	c #031135",
".!	c #021843",
"+!	c #041647",
"@!	c #201A5A",
"#!	c #591CBF",
"$!	c #402694",
"%!	c #11387F",
"&!	c #0E295C",
"*!	c #344A66",
"=!	c #5D7D96",
"-!	c #5B84A5",
";!	c #5283AF",
">!	c #3D6EA4",
",!	c #2D6498",
"'!	c #2D6CA5",
")!	c #2E6CAB",
"!!	c #306296",
"~!	c #0B3F84",
"{!	c #0F336E",
"]!	c #022358",
"^!	c #01133E",
"/!	c #000D30",
"(!	c #050E30",
"_!	c #4B21A1",
":!	c #49249C",
"<!	c #2C1E67",
"[!	c #334D67",
"}!	c #6770A0",
"|!	c #47189D",
"1!	c #101745",
"2!	c #063070",
"3!	c #072455",
"4!	c #030F32",
"5!	c #081B46",
"6!	c #09377C",
"7!	c #032761",
"8!	c #191649",
"9!	c #5721B9",
"0!	c #411C8C",
"a!	c #171045",
"b!	c #06133C",
"c!	c #041846",
"d!	c #10164B",
"e!	c #501DAD",
"f!	c #5C1BC6",
"g!	c #5E6E9D",
"h!	c #6695B4",
"i!	c #578EB9",
"j!	c #3584BA",
"k!	c #2F78B1",
"l!	c #2965A0",
"m!	c #1A4884",
"n!	c #14417A",
"o!	c #14437B",
"p!	c #1C437F",
"q!	c #112857",
"r!	c #053F87",
"s!	c #0C2658",
"t!	c #031746",
"u!	c #000D33",
"v!	c #010D30",
"w!	c #041134",
"x!	c #181F50",
"y!	c #0D234E",
"z!	c #153569",
"A!	c #537D9D",
"B!	c #5F4FB8",
"C!	c #561DB8",
"D!	c #392289",
"E!	c #102352",
"F!	c #030F35",
"G!	c #05163D",
"H!	c #08306E",
"I!	c #042660",
"J!	c #040F2E",
"K!	c #511DAC",
"L!	c #591BC0",
"M!	c #451897",
"N!	c #31197A",
"O!	c #4B19A6",
"P!	c #4D56AA",
"Q!	c #2877B6",
"R!	c #3170B0",
"S!	c #276AB0",
"T!	c #1F5BA0",
"U!	c #12417F",
"V!	c #0C3063",
"W!	c #082A5E",
"X!	c #0A275F",
"Y!	c #081F47",
"Z!	c #031541",
"`!	c #04316B",
" ~	c #071D47",
".~	c #02123B",
"+~	c #020E30",
"@~	c #091D44",
"#~	c #0D285D",
"$~	c #163974",
"%~	c #20568C",
"&~	c #3B6494",
"*~	c #5C20C4",
"=~	c #531CB3",
"-~	c #2E1669",
";~	c #031843",
">~	c #072762",
",~	c #062964",
"'~	c #020D31",
")~	c #421B8F",
"!~	c #503AB0",
"~~	c #2462AB",
"{~	c #194F92",
"]~	c #0A3A76",
"^~	c #072D64",
"/~	c #042456",
"(~	c #032051",
"_~	c #011F53",
":~	c #051946",
"<~	c #020A27",
"[~	c #021640",
"}~	c #021F51",
"|~	c #061742",
"1~	c #021133",
"2~	c #000E2E",
"3~	c #030F2E",
"4~	c #08163D",
"5~	c #082454",
"6~	c #0D284F",
"7~	c #215B93",
"8~	c #413B9B",
"9~	c #5B18C5",
"0~	c #4C1DA5",
"a~	c #2C1E77",
"b~	c #262775",
"c~	c #230F5F",
"d~	c #421592",
"e~	c #5C18C6",
"f~	c #5225B6",
"g~	c #32267E",
"h~	c #0B1F55",
"i~	c #041C4F",
"j~	c #04184C",
"k~	c #05164A",
"l~	c #0D1746",
"m~	c #090E33",
"n~	c #060B2C",
"o~	c #04123B",
"p~	c #07133D",
"q~	c #021131",
"r~	c #020B2A",
"s~	c #011234",
"t~	c #1E3271",
"u~	c #5721BB",
"v~	c #5217B3",
"w~	c #4B15A5",
"x~	c #4F18AC",
"y~	c #541DB5",
"z~	c #571BBC",
"A~	c #501BAC",
"B~	c #110F3F",
"C~	c #011036",
"D~	c #02153E",
"E~	c #05143B",
"F~	c #021442",
"G~	c #031132",
"H~	c #030B2B",
"I~	c #060F2F",
"J~	c #0A285D",
"K~	c #4A25A1",
"L~	c #4B19A2",
"M~	c #231359",
"N~	c #0A133C",
"O~	c #07163C",
"P~	c #0C1646",
"Q~	c #1A124A",
"R~	c #2D1866",
"S~	c #2E1569",
"T~	c #04194A",
"U~	c #171A51",
"V~	c #581BBE",
"W~	c #5C19C5",
"X~	c #581BBD",
"Y~	c #5114B2",
"Z~	c #581CBD",
"`~	c #491CA0",
" {	c #051941",
".{	c #41198F",
"+{	c #3A1D7F",
"@{	c #281661",
"#{	c #5B1FC3",
"${	c #5D1EC6",
"                . . . . . . . . . . . . . .                     . . . . . . . . . . . . . . . . . . . . . . . .     + @ @ # $ % ",
"                    . . . . . . . . . . . .                     . . . . . . . . . . . . . . . . . . . . . . . .       + @ @ # # ",
"                      . . . . . . . . . . .                     . . . . . . . . . . . . . . . . . . . . . . . .       + + @ @ @ ",
"                      . . . . . . . . . . .                     . . . . . . . . . . . . . . . . . . . . . . . .         + + @ @ ",
"                      . . . . & * = . . . .                   . . . . . . . . . . . . . . . . . . . . . . . . . .       + + + + ",
"+ + + + +               . . . - ; > , . . .                   . . . . . . . . . . . . . . . . . . . . . . . . . .         + + + ",
"@ @ @ + + +             . . ' ) ! ~ { ] .                     . . . . . . . . . . . . . . . . . . . . . . . . . .               ",
"@ @ @ @ + + +           . . ^ / ( _ : < [                     . . . . . . . . . . . . . . . . . . . . . . . . . .               ",
"$ # } @ @ + +         . . | 1 2 3 4 5 6 7 8                 . . . . . . . . . . . . . . . . . . . . . . . . . . . .             ",
"% $ # } @ + +         . . 9 0 a b c d e f g h i             . . . . . . . . . . . . . . . . . . . . . . . . . . . .             ",
"j % $ # @ + +         . . k l m n o p q r s t u v         . . . . . . . . . . . . . . . . . . . . . . . . . . . . .             ",
"w j % # @ + +         . x y z A B C D E F G H I J K       . . . . . . . . . . . . . . . . . . . . . . . . . . . . . .           ",
"w L % # @ + +         . M N O P Q R S T U V W X Y Z `   . . . . . . . . . . . . . . . . . . . . . . . . . . . . . . . .       . ",
" .L % # @ +         . ..+.@.#.$.%.&.*.=.-.;.>.,.'.).!.~.. . . . . . . . . . . . . . . . . . . . . . . . . . . . . . . . . . . . ",
"{.L % # @ +         . ].^./.(._.:.<.[.}.|.1.2.3.4.5.6.7.. . . . . . . . . . . . . . . . . . . . . . . . . . . . . . . . . . . . ",
"{.L % # @ +         . 8.9.0.a.b.c.d.e.f.g.h.i.j.k.l.m.n.o.. . . . . . . . . . . . . . . . . . . . . . . . . . . . . . . . . . . ",
"{.L $ @ @ +       . p.q.r.s.t.u.v.w.x.y.z.A.B.C.D.E.F.G.H.. . . . . . . . . . . . . . . . . . . . . . . . . . . . . . . . . . . ",
" .j $ @ +         . I.J.K.L.M.N.O.P.Q.R.S.T.U.V.W.X.Y.Z.`.. . . . . . . . . . . . . . . . . . . . . . . . . . . . . . . . . . . ",
"w % # @ +          +.+++@+#+$+%+&+*+=+-+;+>+,+'+)+!+~+{+]+. . . . . . . . . . . . . . . . . . . . . . . . . . . . . . . . . . . ",
"L % @ + +       .  +^+/+(+_+:+<+[+}+|+1+2+3+4+5+6+7+8+9+0+. . . . . . . . . . . . . . . . . . . . . . . . . a+b+. . . . . . . . ",
"j $ @ +         . o.c+d+e+f+g+h+i+j+k+l+m+n+o+p+q+r+s+t+u+v+. . . . . . . . . . . . . . . . . . . . w+x+y+z+A+B+. . . . . . . . ",
"% # @ +       . . . C+D+E+F+G+H+I+J+K+L+M+N+O+P+Q+R+S+T+U+V+. . . . . . . . . . . . . . . . . . W+X+Y+Z+`+ @.@+@. . . . . . . . ",
"$ @ +         . . . @@#@$@%@&@*@=@-@;@>@,@'@)@!@~@{@]@^@/@(@. . . . . . . . . . . . . . . . . _@:@<@[@}@|@1@2@3@. . . . . . . . ",
"# @ +       . . . . 4@5@6@7@8@9@0@a@b@c@d@e@f@g@h@i@j@k@l@m@n@. . . . . . . . . . . . . . o@p@q@r@s@t@u@v@w@x@y@. . . . . . . . ",
"@ + +       . . . . z@A@B@C@D@E@F@G@H@I@J@K@L@M@N@O@P@Q@R@S@T@. . . . . . . . . . . . . U@V@W@X@Y@Z@`@ #.#+#@###. . . . . . . . ",
"@ +       . . . . . $#%#&#*#=#-#;#>#,#'#)#!#~#{#]#^#/#(#_#:#<#[#. . . . . . . . . . }#|#1#2#3#4#5#6#7#8#9#0#a#b#. . . . . . . . ",
"@ +       . . . . . c#d#e#f#g#h#i#j#k#l#m#n#o#p#q#r#s#t#u#v#w#x#. . . . . . . . . y#z#A#B#C#D#E#F#G#H#I#J#K#L#M#. . . . . . . . ",
"+         . . . . . o.N#O#P#Q#R#S#T#U#V#W#X#Y#Z#`# $.$+$@$#$$$%$&$. . . . . . . *$=$-$;$>$,$'$)$!$~${$]$^$/$($_$. . . . . . . . ",
"+       . . . . . . . :$<$[$}$|$1$2$3$4$5$6$7$8$9$0$a$b$c$d$e$f$g$h$. . . . i$j$k$l$m$n$o$p$q$r$s$t$u$v$w$x$y$z$. . . . . . . . ",
"        . . . . . . . A$B$C$D$E$F$G$H$I$J$K$L$M$N$O$P$Q$R$S$T$U$V$W$. . . . X$Y$Z$`$ %.%+%@%#%$%%%&%*%=%-%;%>%,%. . . . . . . . ",
"      . . . . . . . . '%)%!%~%{%]%^%/%(%_%:%<%[%}%|%1%2%3%4%5%6%7%8%= . . 9%0%a%b%c%d%e%f%g%h%i%j%k%l%m%n%o%p%q%. . . . . . . . ",
"      . . . . . . . . r%s%t%u%v%w%x%y%z%A%B%C%D%E%F%G%H%I%J%K%L%M%N%O%. | P%Q%R%S%T%U%V%W%X%Y%Z%`% &.&+&@&#&$&%&. . . . . . . . ",
"    . . . . . . . . . &&*&=&-&;&>&,&'&)&!&~&{&]&^&/&(&_&:&<&[&}&|&1&2&3&4&5&6&7&8&9&0&a&b&c&d&e&f&g&h&i&j&k&l&m&. . . . . . . . ",
"    . . . . . . . . . n&o&p&q&r&s&t&u&v&w&x&y&z&A&B&C&D&E&F&G&H&I&J&K&L&M&N&O&P&Q&R&S&T&U&V&W&X&Y&Z&`& *.*+*@*#*. . . . . . . . ",
"  . . . . . . . . . . . $*%*&***=*-*;*>*,*'*)*!*~*{*]*^*/*(*_*:*<*[*}*|*1*2*3*4*5*6*7*8*9*0*a*b*c*d*e*f*g*h*i*j*. . . . . . . . ",
"  . . . . . . . . . . . k*l*m*n*o*p*q*r*s*t*u*v*w*x*y*z*A*B*C*D*E*F*G*H*I*J*K*L*M*l&N*O*P*Q*R*S*T*U*V*W*X*Y*Z*}#. . . . . . . . ",
". . . . . . . . . . . . `* =.=+=@=Q+#=$=%=&=*===-=;=>=,='=)=!=~={=]=^=/=(=_=:=<=[=}=|=1=2=3=4=5=6=7=N*8=9=~#0=. . . . . . . . . ",
". . . . . . . . . . . . a=b=c=d=e=f=g=h=i=j=k=l=m=n=o=p=q=r=s=t=u=v=w=x=y=z=A=B=C=D=E=F=G=H=I=J=K=L=M=N=O=P=Q=. . . . . . . . . ",
". . . . . . . . . . . . R=S=T=U=V=W=X=Y=Z=`= -.-+-@-#-$-%-&-*-=---;->-,-'-)-!-~-{-]-^-/-(-_-:-<-[-}-|-1-2-3-. . . . . . . . . . ",
". . . . . . . . . . . . 4-5-6-7-8-8-X=9-0-a-b-c-d-e-f-g-h-i-j-k-l-m-n-o-p-q-r-s-t-u-v-w-x-y-z-A-B-C-B@D-E-F-. . . . . . . . . . ",
". . . . . . . . . . | q%' G-H-I-J-K-L-M-N-O-P-Q-R-S-T-U-V-W-X-Y-Z-`- ;.;+;@;#;$;%;&;*;=;-;;;>;,;';);!;~;{;. . . . . . . . . . . ",
". . . . . . . . . . ];^;/;(;_;:;<;[;L-};|;1;2;3;4;5;6;7;8;9;0;a;b;c;d;e;f;g;h;i;j;D-k;l;m;n;o;p;q;r;s;t;u;. . . . . . . . . . . ",
". . . . . . . . . v;w;x;y;z;A;B;C;D;E;F;G;H;I;J;K;L;M;N;O;P;Q;R;S;T;U;V;W;X;Y;J;Z;`; >.>+>@>#>^-$>%>&>*>. . . . . . . . . . . . ",
". . . . . . . . . =>->;>>>,>'>)>!>~>{>]>^>/>(>_>:><>[>}>|>1>2>3>4>5>6>7>8>9>0>9;a>b>c>d>e>f>g>h>i>j>k>i$. . . . . . . . . . . . ",
". . . . . . . . l>m>n>o>p>q>r>s>t>u>v>w>x>y>z>A>B>C>D>E>F>G>H>I>J>K>L>M>N>O>P>Q>R>S>T>U>V>W>X>Y>Z>`> ,. . . . . . . . . . . . . ",
". . . . . . . . .,+,@,#,$,%,&,*,=,-,;,>,,,',),!,~,{,],^,/,(,_,4>:,<,N@[,},|,:;1,2,3,4,5,6,7,8,9,0,a,b,. . . . . . . . . . . . . ",
". . . . . . . . c,d,e,f,g,h,i,j,k,l,m,n,o,p,q,!,r,s,t,u,v,w,x,y,z,A,B,C,D,E,F,1,2,A>G,H,I,J,K,w>L,M,. . . . . . . . . . . . . . ",
". . . . . . . . N,O,P,Q,R,S,T,U,V,W,X,Y,Z,`, '.'j>+'@'#'$'%'&'*'='-';',,>'>','''2,)'!'~'{']'^'/'('_'. . . . . . . . . . . . . . ",
". . . . . . . . :'<'['}'|'1'2'3'4'5'6'7'8'9'0'!,a'a'b'c'd'e'f'g'h'O>i'%'j'k'l'm'n'o'p'q'r's't'u'v'. . . . . . . . . . . . . . . ",
". . . . . . . . o@w'x'y'z'A'B'C'D'E'F'7'G'H'I'J'K'K'k'L'M'N'O'P'T=Q'R'S'T'U'L-V'W'X'Y'Z'`' ).)+) +. . . . . . . . . . . . . . . ",
". . . . . . . . . @)#)$)%)&)*)=)-);)>),)')))!)~)2,{)])^)/)()_):)<)[)})|)1)2)3)4)5)6)7)8)9)0)a)b). . . . . . . . . . . . . . . . ",
". . . . . . . . . c)d)e)f)g)h)i)j)k)l)m)n)))o)p)4>q)r)s)t)u)v)w)x)y)z)A)B)C)D)E)F)G)H)I)J)K)L)M) +,%N) +. . . . . . . . . . . . ",
". . . . . . . . . O)P)Q)R)S)T)U)V)W)X)Y)Z)`) !.!+!@!#!o@$!%!&!*!=!-!;!>!,!'!)!!!~!{!]!^!/!(!_!:!<![!}!. . . . . . . . . . . . . ",
". . . . . . . . . . |!1!2!3!4!5!6!7!8!9!0!a!b!c!d!e!. . f!g!h!i!j!k!l!m!n!o!p!q!r!s!t!u!v!w!x!y!z!A!B!. . . . . . . . . . . . . ",
". . . . . . . . . . . C!D!E!F!G!H!I!J!K!. L!M!N!O!. . . . P!Q!R!S!T!U!V!W!X!Y!Z!`! ~.~G'+~@~#~$~%~&~*~. . . . . . . . . . . . . ",
". . . . . . . . . . . . . =~-~;~>~,~'~)~. . . . . . . . . !~~~{~]~^~/~(~_~:~<~[~}~|~1~2~3~4~5~6~7~8~. . . . . . . . . . . . . . ",
". . . . . . . . . . . . . . 9~0~a~b~c~d~. . . . . . . . . e~f~g~h~i~j~k~l~m~n~o~[)p~]>q~r~s~w,#~t~u~. . . . . . . . . . . . . . ",
". . . . . . . . . . . . . . . . . . . . . . . .     . . . . . }#v~w~x~y~z~A~B~C~D~E~F~G~H~I~{>J~K~. . . . . . . . . . . . . . . ",
". . . . . . . . . . . . . . . . . . . . .               . . . . . . . . . . L~M~N~O~P~Q~R~S~T~U~V~. . . . . . . . . . . . . . . ",
". . . . . . . . . . . . . . . . . . .                   . . . . . . . . . . . W~X~Y~Z~O)| `~ {.{. . . . . . . . . . . . . . . . ",
". . . . . . . . . . . . . . . . . .                       . . . . . . . . . . . . . . . . +{@{L!. . . . . . . . . . . . . . . . ",
". . . . . . . . . . . . . . . .                           . . . . . . . . . . . . . . . . #{${. . . . . . . . . . . . . . . .   ",
". . . . . . . . . . . . . . .             + +             . . . . . . . . . . . . . . . . . . . . . . . . . . . . . . . . . .   ",
". . . . . . . . . . . . . .           + + + + +         . . . . . . . . . . . . . . . . . . . . . . . . . . . . . . . . . .     "};
