/* XPM */
static char * door_xpm[] = {
"64 64 426 2",
"  	c #5C17C6",
". 	c #5C17C7",
"+ 	c #54408D",
"@ 	c #4F4F4F",
"# 	c #5735A5",
"$ 	c #5B17C6",
"% 	c #5B17C5",
"& 	c #5B16C4",
"* 	c #5A16C4",
"= 	c #5A16C3",
"- 	c #52467C",
"; 	c #504B65",
"> 	c #88878C",
", 	c #7C7C7C",
"' 	c #787878",
") 	c #A0A0A0",
"! 	c #646464",
"~ 	c #909090",
"{ 	c #787781",
"] 	c #553D96",
"^ 	c #5B1EC2",
"/ 	c #524875",
"( 	c #919094",
"_ 	c #C2C2C2",
": 	c #B6B6B6",
"< 	c #818181",
"[ 	c #A6A6A6",
"} 	c #A8A8A8",
"| 	c #D4D4D4",
"1 	c #A7A7A7",
"2 	c #666666",
"3 	c #969696",
"4 	c #9F9F9F",
"5 	c #999999",
"6 	c #83818D",
"7 	c #544289",
"8 	c #592BB4",
"9 	c #534385",
"0 	c #5B4D86",
"a 	c #919191",
"b 	c #BFBFBF",
"c 	c #848484",
"d 	c #CCCCCC",
"e 	c #BEBEBE",
"f 	c #B3B3B3",
"g 	c #C7C7C7",
"h 	c #A9A9A9",
"i 	c #DEDEDE",
"j 	c #89878F",
"k 	c #5C1BC5",
"l 	c #592CB3",
"m 	c #53457F",
"n 	c #6E6E6E",
"o 	c #B5B5B5",
"p 	c #959595",
"q 	c #9A9A9A",
"r 	c #8A8A8A",
"s 	c #676767",
"t 	c #878787",
"u 	c #989898",
"v 	c #7D7D7D",
"w 	c #9E9E9E",
"x 	c #595959",
"y 	c #727272",
"z 	c #979797",
"A 	c #B0B0B0",
"B 	c #C0C0C0",
"C 	c #5B23BE",
"D 	c #592EB1",
"E 	c #6A5F93",
"F 	c #8C8C8C",
"G 	c #AEAEAE",
"H 	c #5F5F5F",
"I 	c #434343",
"J 	c #393939",
"K 	c #474747",
"L 	c #6F6F6F",
"M 	c #949494",
"N 	c #AFAFAF",
"O 	c #BDBDBD",
"P 	c #868686",
"Q 	c #A5A5A5",
"R 	c #6C5C9F",
"S 	c #5A25BC",
"T 	c #6F4295",
"U 	c #6734AD",
"V 	c #592DB2",
"W 	c #6E658F",
"X 	c #9B9B9B",
"Y 	c #B7B7B7",
"Z 	c #515151",
"` 	c #3D3D3D",
" .	c #252525",
"..	c #000000",
"+.	c #2F2F2F",
"@.	c #898989",
"#.	c #C9C9C9",
"$.	c #8F8F8F",
"%.	c #63519A",
"&.	c #5A26BA",
"*.	c #5A26BB",
"=.	c #5C37A4",
"-.	c #6D3D9F",
";.	c #815B00",
">.	c #8D6300",
",.	c #8E6300",
"'.	c #865F00",
").	c #79506B",
"!.	c #6733AF",
"~.	c #5A2AB6",
"{.	c #675D8C",
"].	c #B1B1B1",
"^.	c #444444",
"/.	c #181818",
"(.	c #2A2A2A",
"_.	c #5A5A5A",
":.	c #6F5FA2",
"<.	c #5B3E94",
"[.	c #68543C",
"}.	c #825C00",
"|.	c #8A6100",
"1.	c #9D6D00",
"2.	c #9F6F00",
"3.	c #8E6400",
"4.	c #784F6E",
"5.	c #6733AE",
"6.	c #6631B1",
"7.	c #5B16C5",
"8.	c #5A27B9",
"9.	c #76718C",
"0.	c #7F7F7F",
"a.	c #1C1C1C",
"b.	c #636363",
"c.	c #969390",
"d.	c #5B5147",
"e.	c #6C5537",
"f.	c #8C6200",
"g.	c #845D00",
"h.	c #875F00",
"i.	c #865E00",
"j.	c #7E5744",
"k.	c #642EB5",
"l.	c #5B1CC2",
"m.	c #57516C",
"n.	c #BABABA",
"o.	c #A3A3A3",
"p.	c #888888",
"q.	c #3F3F3F",
"r.	c #4B4B4B",
"s.	c #514F4E",
"t.	c #725730",
"u.	c #835C00",
"v.	c #886000",
"w.	c #8F6400",
"x.	c #996B00",
"y.	c #5A16C2",
"z.	c #696969",
"A.	c #75582A",
"B.	c #946800",
"C.	c #5916C1",
"D.	c #5916C2",
"E.	c #CDCDCD",
"F.	c #7E7E7E",
"G.	c #5916C0",
"H.	c #ABABAB",
"I.	c #5816C0",
"J.	c #797979",
"K.	c #6D6D6D",
"L.	c #BBBBBB",
"M.	c #6A6A6A",
"N.	c #5C5C5C",
"O.	c #646500",
"P.	c #636400",
"Q.	c #6C532E",
"R.	c #906508",
"S.	c #CBCBCB",
"T.	c #B9B9B9",
"U.	c #AAAAAA",
"V.	c #5C5C00",
"W.	c #D8DA16",
"X.	c #D7D915",
"Y.	c #575700",
"Z.	c #3B3B3B",
"`.	c #785720",
" +	c #996B09",
".+	c #7C7D00",
"++	c #F9FC24",
"@+	c #F9FC23",
"#+	c #767600",
"$+	c #303030",
"%+	c #745422",
"&+	c #946801",
"*+	c #070700",
"=+	c #9FA005",
"-+	c #FAFD52",
";+	c #FAFD51",
">+	c #9A9B05",
",+	c #010100",
"'+	c #5A4425",
")+	c #565656",
"!+	c #525252",
"~+	c #1B1B00",
"{+	c #F9FB17",
"]+	c #FEFFA0",
"^+	c #FEFF9D",
"/+	c #F5F816",
"(+	c #7E5A1E",
"_+	c #9C6D05",
":+	c #926603",
"<+	c #656565",
"[+	c #777777",
"}+	c #6D532E",
"|+	c #C8C8C8",
"1+	c #CCCE00",
"2+	c #FCFE72",
"3+	c #FFFFD9",
"4+	c #FCFD6C",
"5+	c #C6C800",
"6+	c #8D8D8D",
"7+	c #666700",
"8+	c #E8EA18",
"9+	c #FEFF9F",
"0+	c #FFFFE5",
"a+	c #FEFF9B",
"b+	c #E3E513",
"c+	c #626300",
"d+	c #4E4E0D",
"e+	c #ADAE29",
"f+	c #DEE020",
"g+	c #FDFE98",
"h+	c #FFFFE4",
"i+	c #FDFE93",
"j+	c #DBDD17",
"k+	c #ADAF00",
"l+	c #454600",
"m+	c #929292",
"n+	c #9E9F24",
"o+	c #CCCC31",
"p+	c #D5D63C",
"q+	c #FBFC5A",
"r+	c #FDFE9D",
"s+	c #FFFFDE",
"t+	c #FFFFDD",
"u+	c #FDFE94",
"v+	c #FBFD2D",
"w+	c #D3D50D",
"x+	c #979800",
"y+	c #9D9D9D",
"z+	c #616161",
"A+	c #454500",
"B+	c #E0E314",
"C+	c #E7E916",
"D+	c #F3F54A",
"E+	c #FCFE5F",
"F+	c #FDFE82",
"G+	c #FFFFE0",
"H+	c #FFFFDF",
"I+	c #FFFFD7",
"J+	c #FDFE77",
"K+	c #FCFE59",
"L+	c #F2F441",
"M+	c #E7E90C",
"N+	c #DCDE0A",
"O+	c #434300",
"P+	c #B5B700",
"Q+	c #F8FB2C",
"R+	c #FBFD30",
"S+	c #FDFE9A",
"T+	c #FEFFC2",
"U+	c #FEFFC9",
"V+	c #FEFFC8",
"W+	c #F6F92B",
"X+	c #B0B100",
"Y+	c #A4A4A4",
"Z+	c #A7A801",
"`+	c #ACAE01",
" @	c #DDDF1A",
".@	c #FAFC25",
"+@	c #FEFFA5",
"@@	c #FFFFCD",
"#@	c #FEFFCB",
"$@	c #FAFD4B",
"%@	c #D9DB19",
"&@	c #A3A401",
"*@	c #4E4E4E",
"=@	c #8E8E8E",
"-@	c #838400",
";@	c #A1A305",
">@	c #FAFC18",
",@	c #FCFE67",
"'@	c #FFFFD3",
")@	c #FCFE64",
"!@	c #9B9C05",
"~@	c #5F6000",
"{@	c #131302",
"]@	c #333308",
"^@	c #B4B42D",
"/@	c #F7F866",
"(@	c #FFFFE8",
"_@	c #FFFFDA",
":@	c #F7F862",
"<@	c #B0B12C",
"[@	c #0F0F01",
"}@	c #A2A2A2",
"|@	c #7A7A7A",
"1@	c #E0E138",
"2@	c #FDFE91",
"3@	c #FDFE8C",
"4@	c #DADB35",
"5@	c #6E5124",
"6@	c #42382D",
"7@	c #755421",
"8@	c #959622",
"9@	c #FBFB6C",
"0@	c #FEFFC6",
"a@	c #FEFFC5",
"b@	c #F8F969",
"c@	c #909120",
"d@	c #96690D",
"e@	c #664C27",
"f@	c #43392E",
"g@	c #785621",
"h@	c #707070",
"i@	c #747474",
"j@	c #1B1B01",
"k@	c #F9FA38",
"l@	c #FEFFA7",
"m@	c #F5F737",
"n@	c #6F5124",
"o@	c #624928",
"p@	c #916612",
"q@	c #8B8B8B",
"r@	c #171700",
"s@	c #E5E713",
"t@	c #FDFE8E",
"u@	c #E2E412",
"v@	c #050600",
"w@	c #815C1C",
"x@	c #51402C",
"y@	c #715223",
"z@	c #835D1B",
"A@	c #775621",
"B@	c #6A4E22",
"C@	c #6D4F21",
"D@	c #8A6117",
"E@	c #ACACAC",
"F@	c #FAFC24",
"G@	c #56432A",
"H@	c #876019",
"I@	c #684C1E",
"J@	c #6B4E25",
"K@	c #D3D3D3",
"L@	c #2B2C00",
"M@	c #AEB003",
"N@	c #ADAE02",
"O@	c #282900",
"P@	c #7F5B1D",
"Q@	c #7E5A15",
"R@	c #6A4E1F",
"S@	c #7B581F",
"T@	c #858585",
"U@	c #4E3E2B",
"V@	c #78561F",
"W@	c #555555",
"X@	c #9D6E02",
"Y@	c #A1A1A1",
"Z@	c #313030",
"`@	c #5B4524",
" #	c #626262",
".#	c #94680F",
"+#	c #8D630A",
"@#	c #686868",
"##	c #B4B4B4",
"$#	c #333333",
"%#	c #323232",
"&#	c #757575",
"*#	c #6C6C6C",
"=#	c #4A4A4A",
"-#	c #7B7B7B",
";#	c #9C9C9C",
">#	c #717171",
",#	c #535353",
"'#	c #505050",
")#	c #585858",
"!#	c #5D5D5D",
"~#	c #767676",
"{#	c #545454",
"]#	c #737373",
"^#	c #B2B2B2",
"/#	c #C1C1C1",
"(#	c #5E5E5E",
"_#	c #606060",
":#	c #CACACA",
"<#	c #855E00",
"[#	c #936700",
"}#	c #838383",
"|#	c #5B5148",
"1#	c #5F5244",
"2#	c #755932",
"3#	c #5735A4",
"4#	c #5F4582",
"5#	c #72572F",
"6#	c #916500",
"7#	c #592AB5",
"8#	c #6A5539",
"9#	c #715834",
"0#	c #906500",
"a#	c #592CB4",
"b#	c #55504B",
"c#	c #705632",
"d#	c #916609",
"e#	c #9B6D00",
"f#	c #71563B",
"g#	c #74572C",
"h#	c #8C6416",
"i#	c #5D1DC7",
"j#	c #53457E",
"k#	c #6E534A",
"l#	c #795922",
"m#	c #886118",
"n#	c #9A6B00",
"o#	c #956800",
"p#	c #553F90",
"q#	c #66524F",
"r#	c #7D5A17",
"s#	c #5737A2",
"                . . . . . . . . . . . . . . + @ @ @ @ @ @ @ @ @ # . . . . . . . . . . . . . . . . . . . . . . .     $ % % & * = ",
"                    . . . . . . . . . . - ; > , ' ) ) ) ) ) ! ~ { ; ] . . . . . . . . . . . . . . . . . . . . .       $ % % & & ",
"                      . . . . . . ^ / / ( _ : < , [ [ } | 1 2 3 4 5 6 / 7 . . . . . . . . . . . . . . . . . . .       $ $ % % % ",
"                      . . . . 8 9 0 a b c d e < , f g h i 1 2 3 [ ~ < a j 9 9 k . . . . . . . . . . . . . . . .         $ $ % % ",
"                      . . . l m n o [ b p q r s ! t u v w , x y , c z A B r @ + C . . . . . . . . . . . . . . . .       $ $ $ $ ",
"$ $ $ $ $               . D E < F G [ [ F H I J J J J J J J J J K L M N O P < Q R S . . . . . . T T T T T U . . .         $ $ $ ",
"% % % $ $ $             V W X Y 4 , F F Z `  ...................+.` 2 F @., [ #.$.%.&.. *.=.-.-.;.>.,.,.'.).!.. .               ",
"% % % % $ $ $         ~.{.t ].B 3 a ^.^./...........................(.^._.3 3 Q 5 F :.V <.[.}.|.;.1.2.2.3.;.4.5.6.              ",
"* & 7.% % $ $       8.9.u t 0.P K ^.....................................a.K K z b.f c.d.e.}.f.2.;.1.2.2.3.g.h.i.j.k.            ",
"= * & 7.% $ $     l.m.g n.o.p.q...............................................r.@ s.t.u.}.v.2.2.;.1.2.2.3.w.2.x.;.;.            ",
"y.= * & % $ $     @ w z.@ @ ` ..................................................K A.B.2.B.v.2.2.;.1.2.2.3.w.2.x.;.;.            ",
"C.y.= & % $ $     @ w [ Q v ` ..................................................K A.B.2.B.v.2.2.;.1.2.2.3.w.2.x.;.;..           ",
"C.D.= & % $ $     @ w E.n.F.` ..................................................K A.B.2.B.v.2.2.;.1.2.2.3.w.2.x.;.;.. .       . ",
"G.D.= & % $       @ s } H.F.` ..................................................K A.B.2.B.v.2.2.;.1.2.2.3.w.2.x.;.;.. . . . . . ",
"I.D.= & % $       @ p.F.J.! ` ..................................................K A.B.2.B.v.2.2.;.1.2.2.3.w.2.x.;.;.. . . . . . ",
"I.D.= & % $       @ w ~ r K.` ..................................................K A.B.2.B.v.2.2.;.1.2.2.3.w.2.x.;.;.. . . . . . ",
"I.D.* % % $       @ w L.A F.` ..................................................K A.B.2.B.v.2.2.;.1.2.2.3.w.2.x.;.;.. . . . . . ",
"G.y.* % $         @ p.].4 L ` ..................................................K A.B.2.B.v.2.2.;.1.2.2.3.w.2.x.;.;.. . . . . . ",
"C.= & % $         @ , L M.N.` ......................O.P.........................K Q.R.2.B.v.2.2.;.1.2.2.3.w.2.x.;.;.. . . . . . ",
"D.= % $ $       . @ S.T.U.F.` ....................V.W.X.Y.......................K Z.`. +B.v.2.2.;.1.2.2.3.w.2.x.;.;.. . . . . . ",
"y.* % $         . @ w | O F.` .....................+++@+#+......................K Z.$+%+&+v.2.2.;.1.2.2.3.w.2.x.;.;.. . . . . . ",
"= & % $       . . @ w [ [ F.` ..................*+=+-+;+>+,+....................K Z.$+$+'+v.2.2.;.1.2.2.3.w.2.x.;.;.. . . . . . ",
"* % $         . . @ w K.)+!+` ..................~+{+]+^+/+*+....................K Z.(+_+:+v.2.2.;.1.2.2.3.w.2.x.;.;.. . . . . . ",
"& % $       . . . @ <+O N [+` ..................~+{+]+^+/+*+....................K }+R.2.B.v.2.2.;.1.2.2.3.w.2.x.;.;.. . . . . . ",
"% $ $       . . . @ $.A |+5 ` ..................1+2+3+3+4+5+....................K A.B.2.B.v.2.2.;.1.2.2.3.w.2.x.;.;.. . . . . . ",
"% $       . . . . @ w [ : 6+` ................7+8+9+0+0+a+b+c+..................K A.B.2.B.v.2.2.;.1.2.2.3.w.2.x.;.;.. . . . . . ",
"% $       . . . . @ , < q F.` ............d+e+f+g+0+0+0+h+i+j+k+l+..............K A.B.2.B.v.2.2.;.1.2.2.3.w.2.x.;.;.. . . . . . ",
"$         . . . . @ [+u m+n ` ........n+o+p+q+r+s+0+0+0+0+t+u+v+w+1+x+..........K A.B.2.B.v.2.2.;.1.2.2.3.w.2.x.;.;.. . . . . . ",
"$       . . . . . @ w g y+z+` ..A+B+C+D+E+F+3+G+0+0+0+0+0+0+H+I+J+K+L+M+N+O+....K A.B.2.B.v.2.2.;.1.2.2.3.w.2.x.;.;.. . . . . . ",
"        . . . . . @ w [ [ F.` ..P+Q+R+S+T+U+0+0+0+0+0+0+0+0+0+0+V+T+u+R+W+X+....K A.B.2.B.v.2.2.;.1.2.2.3.w.2.x.;.;.. . . . . . ",
"      . . . . . . @ u ) Y+F.` ....Z+`+ @.@-++@@@0+0+0+0+0+0+#@+@$@.@%@`+&@......K A.B.2.B.v.2.2.;.1.2.2.3.w.2.x.;.;.. . . . . . ",
"      . . . . . . @ @ *@=@F.` ........O.-@;@>@,@I+0+0+0+0+'@)@>@!@-@~@..........K A.B.2.B.v.2.2.;.1.2.2.3.w.2.x.;.;.. . . . . . ",
"    . . . . . . . @ 4 [ ' @ ` ............{@]@^@/@t+(@(@_@:@<@]@[@..............K A.B.2.B.v.2.2.;.1.2.2.3.w.2.x.;.;.. . . . . . ",
"    . . . . . . . @ w [ }@|@` ..................1@2@(@(@3@4@....................K A.B.2.B.v.2.2.;.1.2.5@6@7@2.x.;.;.. . . . . . ",
"  . . . . . . . . @ w [ [ F.` ..................8@9@0@a@b@c@....................K A.B.2.B.v.2.2.;.1.2.d@e@f@g@x.;.;.. . . . . . ",
"  . . . . . . . . @ h@i@i@z+` ..................j@k@l@+@m@*+....................K A.B.2.B.v.2.2.;.1.2.2.n@o@p@x.;.;.. . . . . . ",
". . . . . . . . . @ P q@q@n ` ..................r@s@2@t@u@v@....................K A.B.2.B.v.2.2.;.1.2.w@x@y@2.x.;.;.. . . . . . ",
". . . . . . . . . @ w [ [ F.` .....................+++@+#+......................K A.B.2.B.v.2.2.;.1.z@A@B@C@D@x.;.;.. . . . . . ",
". . . . . . . . . @ o E@[ F.` .....................+F@@+#+......................K A.B.2.B.v.2.2.;.1.G@H@3.I@J@x.;.;.. . . . . . ",
". . . . . . . . . @ K@} 3 i@` ....................L@M@N@O@......................K A.B.2.B.v.2.2.;.1.n@P@Q@R@S@x.;.;.. . . . . . ",
". . . . . . . . . @ _ T@s _.` ..................................................K }+R.2.B.v.2.2.;.1.2.%+U@V@2.x.;.;.. . . . . . ",
". . . . . . . . . @ W@q [ F.` ..................................................K Z.(+X@B.v.2.2.;.1.2.2.3.w.2.x.;.;.. . . . . . ",
". . . . . . . . . @ w [ [ F.` ..................................................K Z.$+%+B.v.2.2.;.1.2.2.3.w.2.x.;.;.. . . . . . ",
". . . . . . . . . @ w [ d Y@` ..................................................K Z.$+Z@`@v.2.2.;.1.2.2.3.w.2.x.;.;.. . . . . . ",
". . . . . . . . . @  #! O Y@` ..................................................K Z.`..#+#v.2.2.;.1.2.2.3.w.2.x.;.;.. . . . . . ",
". . . . . . . . . @ m+u r @#` ..................................................K Q.R.2.B.v.2.2.;.1.2.2.3.w.2.x.;.;.. . . . . . ",
". . . . . . . . . @ w [ z L ` ..................................................K A.B.2.B.v.2.2.;.1.2.2.3.w.2.x.;.;.. . . . . . ",
". . . . . . . . . @ w _ ##F.` ..................................................K A.B.2.B.v.2.2.;.1.2.2.3.w.2.x.;.;.. . . . . . ",
". . . . . . . . . @ c E@X K.` ........$#$#$#$#$#$#$#$#$#$#$#$#$#$#$#$#$#$#%#....K A.B.2.B.v.2.2.;.1.2.2.3.w.2.x.;.;.. . . . . . ",
". . . . . . . . . @ &#J.J.! ^.$+$+$++.H M.*#*#*#y J.J.J.J.K.W@@ x H H b.M.H +.$+=#A.B.2.B.v.2.2.;.1.2.2.3.w.2.x.;.;.. . . . . . ",
". . . . . . . . . @ w [ [ F.@ @ @ Z z+-#F $.m+M ;#Q Y@}@[ p K.z+z.n >#, q@i@@ ,#'#A.B.2.B.v.2.2.;.1.2.2.3.w.2.x.;.;.. . . . . . ",
". . . . . . . . . @ p Y+[ F.)#! ! @#t t t t M ;#;#3 @.~ o.[ z ~ i@!#<+~#c i@@ ! {#A.B.2.B.v.2.2.;.1.2.2.3.w.2.x.;.;.. . . . . . ",
". . . . . . . . . @ Z 5 Q v , [ [ Y@Z '#'#'#'#'#'#'#z+$.$.Q Q p $.$.|@@ )#i@@ ]#)#A.B.2.B.v.2.2.;.1.2.2.3.w.2.x.;.;.. . . . . . ",
". . . . . . . . . @ K@0.@ @ , ^#/#h g [ [ [ [ [ [ [ q @ @ @ @ @ @ @ @ {#(#@ @ _#,#A.B.2.B.v.2.2.;.1.2.2.3.w.2.x.;.;.. . . . . . ",
". . . . . . . . . @ Y@Y+o., , 1 1 [ } [ /#G n.o [ [ Q o.o.o.o.o.o.o.o.M '#@ @ '#@ A.B.2.B.v.2.2.;.1.2.2.3.w.2.x.;.;.. . . . . . ",
". . . . . . . . . @ :#].[ F._.s s s s s y M.L K.s s s s s s s s s s s  #@ @ @ @ @ A.<#[#B.v.2.2.;.1.2.2.3.w.2.x.;.;.. . . . . . ",
". . . . . . . . . @ }#i@n (#@ @ @ @ @ @ @ @ @ @ @ @ @ @ @ @ @ @ @ @ @ @ @ @ @ @ @ |#1#2#'.v.2.2.;.1.2.2.3.w.2.x.;.;.. . . . . . ",
". . . . . . . . . # # # # # # # # # # # # # # # 3#3## # # # # # # # # # # # # # # # # 4#5#g.6#2.;.1.2.2.3.w.2.x.;.;.. . . . . . ",
". . . . . . . . . . . . . . . . . . . . .               . . . . . . . . . . . . . . . 7#4#8#9#0#;.1.2.2.3.w.2.x.;.;.. . . . . . ",
". . . . . . . . . . . . . . . . . . .                   . . . . . . . . . . . . . . . . a#9 b#c#c#d#B.e#3.w.2.x.;.;.. . . . . . ",
". . . . . . . . . . . . . . . . . .                       . . . . . . . . . . . . . . . . *.9 9 9 f#g#h#|.w.2.x.;.;.. . . . . . ",
". . . . . . . . . . . . . . . .                           . . . . . . . . . . . . . i#i#. . . . . j#/ k#l#m#n#o#;.;.. . . . .   ",
". . . . . . . . . . . . . . .             $ $             . . . . . . . . . . . . . i#i#. . . . . . . p#; q#r#r#r#r#. . . . .   ",
". . . . . . . . . . . . . .           $ $ $ $ $         . . . . . . . . . . . . . . . . . . . . . . . . . s#@ @ @ @ . . . .     "};
