/* XPM */
static char * fond_xpm[] = {
"64 64 13 1",
" 	c #5C17C6",
".	c #5C17C7",
"+	c #5B17C6",
"@	c #5B17C5",
"#	c #5B16C4",
"$	c #5A16C4",
"%	c #5A16C3",
"&	c #5B16C5",
"*	c #5A16C2",
"=	c #5916C1",
"-	c #5916C2",
";	c #5916C0",
">	c #5816C0",
"        ..............          ........................  +@@#$%",
"          ............          ........................   +@@##",
"           ...........          ........................   ++@@@",
"           ...........          ........................    ++@@",
"           ...........         ..........................   ++++",
"+++++       ..........         ..........................    +++",
"@@@+++      .........          ..........................       ",
"@@@@+++     .........          ..........................       ",
"$#&@@++    ..........         ............................      ",
"%$#&@++    ..........         ............................      ",
"*%$#@++    ..........        .............................      ",
"=*%#@++    ..........        ..............................     ",
"=-%#@++    ..........       ................................   .",
";-%#@+    ..........        ....................................",
">-%#@+    ..........       .....................................",
">-%#@+    ..........      ......................................",
">-$@@+   ............    .......................................",
";*$@+    ............   ........................................",
"=%#@+    ............. .........................................",
"-%@++   ........................................................",
"*$@+    ........................................................",
"%#@+   .........................................................",
"$@+    .........................................................",
"#@+   ..........................................................",
"@++   ..........................................................",
"@+   ...........................................................",
"@+   ...........................................................",
"+    ...........................................................",
"+   ............................................................",
"    ............................................................",
"   .............................................................",
"   .............................................................",
"  ..............................................................",
"  ..............................................................",
" ...............................................................",
" ...............................................................",
"................................................................",
"................................................................",
"................................................................",
"................................................................",
"................................................................",
"................................................................",
"................................................................",
"................................................................",
"................................................................",
"................................................................",
"................................................................",
"................................................................",
"................................................................",
"................................................................",
"................................................................",
"................................................................",
"................................................................",
"................................................................",
"................................................................",
"................................................................",
"................................................................",
"........................  ......................................",
".....................       ....................................",
"...................         ....................................",
"..................           ...................................",
"................             .................................. ",
"...............      ++      .................................. ",
"..............     +++++    ..................................  "};
