/* XPM */
static char * gem_xpm[] = {
"64 64 383 2",
"  	c #5C17C6",
". 	c #5C17C7",
"+ 	c #5B17C6",
"@ 	c #5B17C5",
"# 	c #5B16C4",
"$ 	c #5A16C4",
"% 	c #5A16C3",
"& 	c #5B16C5",
"* 	c #5A16C2",
"= 	c #5916C1",
"- 	c #5916C2",
"; 	c #5916C0",
"> 	c #5816C0",
", 	c #5A18C3",
"' 	c #5421B6",
") 	c #5226B0",
"! 	c #5526B0",
"~ 	c #5626B0",
"{ 	c #5524B1",
"] 	c #571DBB",
"^ 	c #5C18C6",
"/ 	c #5424B8",
"( 	c #453299",
"_ 	c #495BA3",
": 	c #60A3C0",
"< 	c #82BBCC",
"[ 	c #A9BDCD",
"} 	c #AFBECD",
"| 	c #A5BECD",
"1 	c #A4BECD",
"2 	c #B1BECD",
"3 	c #B0BECD",
"4 	c #AFBDCC",
"5 	c #9DAEC3",
"6 	c #5E74A8",
"7 	c #403899",
"8 	c #482DA1",
"9 	c #581EBF",
"0 	c #5B1AC6",
"a 	c #554DBA",
"b 	c #53A2C2",
"c 	c #61D2E4",
"d 	c #6CE0E9",
"e 	c #7DF1F4",
"f 	c #BDF8FA",
"g 	c #DEFAFA",
"h 	c #DFFAFA",
"i 	c #D1FAFA",
"j 	c #D6FAFA",
"k 	c #E2FAFA",
"l 	c #E1FAFA",
"m 	c #E1F9F9",
"n 	c #CDEDF3",
"o 	c #87CBDD",
"p 	c #4BB9D2",
"q 	c #47B1CC",
"r 	c #4B74B6",
"s 	c #582DC0",
"t 	c #5753BB",
"u 	c #61B0CB",
"v 	c #6FE9F3",
"w 	c #78F6FE",
"x 	c #7BF7FF",
"y 	c #8AFAFF",
"z 	c #BBFEFF",
"A 	c #CDFFFF",
"B 	c #CAFFFF",
"C 	c #C0FFFF",
"D 	c #CFFFFF",
"E 	c #CAFCFD",
"F 	c #A4E6F0",
"G 	c #5BC6DC",
"H 	c #41BED6",
"I 	c #46B1CC",
"J 	c #4B73B6",
"K 	c #5829BF",
"L 	c #5B19C4",
"M 	c #5855BA",
"N 	c #61B3CF",
"O 	c #72EAF4",
"P 	c #7FF8FE",
"Q 	c #81FAFF",
"R 	c #84F5FF",
"S 	c #A4FAFF",
"T 	c #B5FFFF",
"U 	c #ADFFFF",
"V 	c #AEFFFF",
"W 	c #B6FFFF",
"X 	c #B8FFFF",
"Y 	c #B1F1F6",
"Z 	c #78C7D8",
"` 	c #3BB0C9",
" .	c #3DB8D1",
"..	c #44B0CC",
"+.	c #4C74B7",
"@.	c #572EBE",
"#.	c #5B1BC5",
"$.	c #5958BD",
"%.	c #61B2CE",
"&.	c #6FE6F3",
"*.	c #7DF6FD",
"=.	c #82FAFE",
"-.	c #7EF6FD",
";.	c #9DF2FB",
">.	c #BEF5FA",
",.	c #C3F7FA",
"'.	c #C1F7FA",
").	c #AFF8FC",
"!.	c #BFFBFE",
"~.	c #C5FBFE",
"{.	c #C4FAFE",
"].	c #C5FAFE",
"^.	c #C3F6FB",
"/.	c #9BDAE7",
"(.	c #52B8CF",
"_.	c #3AB4CD",
":.	c #40BCD4",
"<.	c #48B4D0",
"[.	c #4B77B9",
"}.	c #572ABE",
"|.	c #564DBA",
"1.	c #60A8C4",
"2.	c #6FE3EB",
"3.	c #77F1FB",
"4.	c #74EEF8",
"5.	c #6CEAF4",
"6.	c #64E1F1",
"7.	c #6BD5E9",
"8.	c #75D3E7",
"9.	c #76D3E7",
"0.	c #75D4E7",
"a.	c #6FDAED",
"b.	c #81ECFB",
"c.	c #83E9FB",
"d.	c #81E4F9",
"e.	c #81E5F9",
"f.	c #86E8FA",
"g.	c #79D8E9",
"h.	c #4CB6CD",
"i.	c #3DB3CC",
"j.	c #41BED7",
"k.	c #48C6DF",
"l.	c #47B3CF",
"m.	c #4B74B7",
"n.	c #572DBF",
"o.	c #5526BB",
"p.	c #4274A4",
"q.	c #4EB4C4",
"r.	c #57C5D2",
"s.	c #5AD4E6",
"t.	c #5CDCF0",
"u.	c #54D3EA",
"v.	c #4DCDE5",
"w.	c #4BCBE4",
"x.	c #4ACBE4",
"y.	c #51D2E9",
"z.	c #62E7FA",
"A.	c #63E8FC",
"B.	c #61E4FB",
"C.	c #60E1F9",
"D.	c #60E0F9",
"E.	c #63E3FA",
"F.	c #72E8F8",
"G.	c #61C8D8",
"H.	c #3397AE",
"I.	c #2D9EB7",
"J.	c #36B0C9",
"K.	c #3CB8D1",
"L.	c #3DB7D0",
"M.	c #3C9FBB",
"N.	c #4B57B1",
"O.	c #5A1DC3",
"P.	c #5626BD",
"Q.	c #446EAB",
"R.	c #3BA7C0",
"S.	c #34ACC4",
"T.	c #3CB7CF",
"U.	c #54D3E8",
"V.	c #5ADBF1",
"W.	c #4FCFE7",
"X.	c #52D1E8",
"Y.	c #6CE7F8",
"Z.	c #72F0FE",
"`.	c #66ECFE",
" +	c #66EDFE",
".+	c #65E9FD",
"++	c #64E8FC",
"@+	c #6EEBFC",
"#+	c #74E2EF",
"$+	c #4AACC0",
"%+	c #238FA8",
"&+	c #2FA4BD",
"*+	c #33ADC6",
"=+	c #34AEC7",
"-+	c #38B1C8",
";+	c #3F9BBA",
">+	c #4E54B5",
",+	c #5A1CC4",
"'+	c #553DBD",
")+	c #4780B7",
"!+	c #3DAAC5",
"~+	c #40BCD3",
"{+	c #54D4E8",
"]+	c #57D8EE",
"^+	c #4CCCE5",
"/+	c #51CEE6",
"(+	c #72E4F3",
"_+	c #7BF4FF",
":+	c #67EEFF",
"<+	c #68EEFF",
"[+	c #69EFFF",
"}+	c #74EEFB",
"|+	c #6AD2E0",
"1+	c #3598AF",
"2+	c #2899B3",
"3+	c #32AAC4",
"4+	c #34ADC6",
"5+	c #37AFC8",
"6+	c #40A0C0",
"7+	c #4D67B6",
"8+	c #5928C1",
"9+	c #553ABD",
"0+	c #4883B8",
"a+	c #3CABC6",
"b+	c #48C3D9",
"c+	c #5FE1F5",
"d+	c #54D4EC",
"e+	c #50CDE5",
"f+	c #72E2F0",
"g+	c #81F6FF",
"h+	c #70F0FE",
"i+	c #6EF0FF",
"j+	c #6EF0FE",
"k+	c #75E5F1",
"l+	c #50B5C9",
"m+	c #2593AD",
"n+	c #2EA3BC",
"o+	c #41A2C2",
"p+	c #4C64B4",
"q+	c #5819C0",
"r+	c #5439BA",
"s+	c #4786B9",
"t+	c #3EACC7",
"u+	c #3EB8D0",
"v+	c #55D3E8",
"w+	c #5DDFF4",
"x+	c #56D7EE",
"y+	c #51D1EA",
"z+	c #4DCDE6",
"A+	c #50CEE7",
"B+	c #70E2F1",
"C+	c #8EFBFF",
"D+	c #90FBFF",
"E+	c #87F8FF",
"F+	c #7DF5FE",
"G+	c #7EF1FC",
"H+	c #6DD6E3",
"I+	c #339EB6",
"J+	c #299AB4",
"K+	c #32AAC3",
"L+	c #38B0C8",
"M+	c #41A1C1",
"N+	c #4C63B4",
"O+	c #5924C1",
"P+	c #5437BA",
"Q+	c #4782B6",
"R+	c #3DAEC7",
"S+	c #46C1D8",
"T+	c #5DDFF2",
"U+	c #62E6FA",
"V+	c #5DDEF6",
"W+	c #5AD9F2",
"X+	c #6DE6F7",
"Y+	c #8DFBFF",
"Z+	c #97FFFF",
"`+	c #96FEFF",
" @	c #94FDFE",
".@	c #86EDF3",
"+@	c #51B8CC",
"@@	c #2798B1",
"#@	c #30A7C0",
"$@	c #38B1C9",
"%@	c #41A1BF",
"&@	c #4D63B5",
"*@	c #591FC2",
"=@	c #5438BB",
"-@	c #477EB5",
";@	c #41B2CB",
">@	c #4DCAE0",
",@	c #5CDDF2",
"'@	c #60E1F8",
")@	c #63E1F9",
"!@	c #7AEDFC",
"~@	c #95FEFF",
"{@	c #93FAFC",
"]@	c #70D6E3",
"^@	c #2FA1BA",
"/@	c #2DA1BA",
"(@	c #40A0BE",
"_@	c #5639BD",
":@	c #4682B6",
"<@	c #3FAEC8",
"[@	c #48C4DA",
"}@	c #5ADBF0",
"|@	c #60E2F9",
"1@	c #62E1F9",
"2@	c #79EEFB",
"3@	c #87EEF4",
"4@	c #4CB6CB",
"5@	c #2D9FB8",
"6@	c #37AEC6",
"7@	c #41A0C0",
"8@	c #4C62B4",
"9@	c #5921C1",
"0@	c #5B19C5",
"a@	c #553EBC",
"b@	c #4885BA",
"c@	c #4ECBE1",
"d@	c #5FE2F7",
"e@	c #61E1F9",
"f@	c #6CE9FB",
"g@	c #89F9FF",
"h@	c #95FCFD",
"i@	c #66D1DF",
"j@	c #35A4BC",
"k@	c #34A7BF",
"l@	c #5925C1",
"m@	c #5B18C5",
"n@	c #553EBB",
"o@	c #4683B6",
"p@	c #45B7D0",
"q@	c #55D4E9",
"r@	c #61E3F8",
"s@	c #67E5FB",
"t@	c #82F4FE",
"u@	c #96FFFF",
"v@	c #87EEF3",
"w@	c #4BB5C8",
"x@	c #32A3BB",
"y@	c #4D66B6",
"z@	c #5826C1",
"A@	c #5538BC",
"B@	c #4884B8",
"C@	c #46B8D1",
"D@	c #55D4EA",
"E@	c #68E6F9",
"F@	c #85F4FD",
"G@	c #90F7FB",
"H@	c #6BD4E2",
"I@	c #3FAFC7",
"J@	c #41A0BE",
"K@	c #4B61B2",
"L@	c #5925C2",
"M@	c #4785B6",
"N@	c #4ABED5",
"O@	c #60DFF1",
"P@	c #7BF1FD",
"Q@	c #81EBF2",
"R@	c #56C4D7",
"S@	c #43A5C3",
"T@	c #4C63B2",
"U@	c #5920C1",
"V@	c #5C18C7",
"W@	c #5430B9",
"X@	c #498CBB",
"Y@	c #50C1D6",
"Z@	c #6DE4F2",
"`@	c #6BD8E7",
" #	c #4BACC9",
".#	c #4958AC",
"+#	c #591DC2",
"@#	c #4A87BA",
"##	c #51BBD0",
"$#	c #54B1CB",
"%#	c #4F6AB7",
"&#	c #5927C3",
"*#	c #5B18C6",
"=#	c #553CBB",
"-#	c #4968B0",
";#	c #4C5DB3",
">#	c #5829C1",
",#	c #581DBF",
"'#	c #591BC1",
"                . . . . . . . . . . . . . .                     . . . . . . . . . . . . . . . . . . . . . . . .     + @ @ # $ % ",
"                    . . . . . . . . . . . .                     . . . . . . . . . . . . . . . . . . . . . . . .       + @ @ # # ",
"                      . . . . . . . . . . .                     . . . . . . . . . . . . . . . . . . . . . . . .       + + @ @ @ ",
"                      . . . . . . . . . . .                     . . . . . . . . . . . . . . . . . . . . . . . .         + + @ @ ",
"                      . . . . . . . . . . .                   . . . . . . . . . . . . . . . . . . . . . . . . . .       + + + + ",
"+ + + + +               . . . . . . . . . .                   . . . . . . . . . . . . . . . . . . . . . . . . . .         + + + ",
"@ @ @ + + +             . . . . . . . . .                     . . . . . . . . . . . . . . . . . . . . . . . . . .               ",
"@ @ @ @ + + +           . . . . . . . . .                     . . . . . . . . . . . . . . . . . . . . . . . . . .               ",
"$ # & @ @ + +         . . . . . . . . . .                   . . . . . . . . . . . . . . . . . . . . . . . . . . . .             ",
"% $ # & @ + +         . . . . . . . . . .                   . . . . . . . . . . . . . . . . . . . . . . . . . . . .             ",
"* % $ # @ + +         . . . . . . . . . .                 . . . . . . . . . . . . . . . . . . . . . . . . . . . . .             ",
"= * % # @ + +         . . . . . . . . . .                 . . . . . . . . . . . . . . . . . . . . . . . . . . . . . .           ",
"= - % # @ + +         . . . . . . . . . .               . . . . . . . . . . . . . . . . . . . . . . . . . . . . . . . .       . ",
"; - % # @ +         . . . . . . . . . .                 . . . . . . . . . . . . . . . . . . . . . . . . . . . . . . . . . . . . ",
"> - % # @ +         . . . . . . . . . .               . . . . . . . . . . . . . . . . . . . . . . . . . . . . . . . . . . . . . ",
"> - % # @ +         . . . . . . . . . .             . . . . . . . . . . . . . . . . . . . . . . . . . . . . . . . . . . . . . . ",
"> - $ @ @ +       . . . . . . . . . . . .         . . . . . . . . . . . . . . . . . . . . . . . . . . . . . . . . . . . . . . . ",
"; * $ @ +         . . . . . . . . . . . .       . . . . . . . . . . . . . . . . . . . . . . . . . . . . . . . . . . . . . . . . ",
"= % # @ +         . . . . . . . . . . . . .   . . . . . . . . . . . . . . . . . . . . . . . . . . . . . . . . . . . . . . . . . ",
"- % @ + +       . . . . . . . . . . . . . . . . . . . . . . . . . . . . . . . . . . . . . . . . . . . . . . . . . . . . . . . . ",
"* $ @ +         . . . . . . . . . . . . . . . . . . . . . . . . . . . . . . . . . . . . . . . . . . . . . . . . . . . . . . . . ",
"% # @ +       . . . . . . . . . . . . . . . .   , ' ) ! ~ ! ! ~ ~ ~ ~ { ] @   . . . . . . . . . . . . . . . . . . . . . . . . . ",
"$ @ +         . . . . . . . . . . . . . . ^ / ( _ : < [ } | 1 2 3 3 4 5 6 7 8 9 . . . . . . . . . . . . . . . . . . . . . . . . ",
"# @ +       . . . . . . . . . . . . . . 0 a b c d e f g h i j k l l m n o p q r s . . . . . . . . . . . . . . . . . . . . . . . ",
"@ + +       . . . . . . . . . . . . . @ t u v w x y z A B C A D D D D E F G H I J K . . . . . . . . . . . . . . . . . . . . . . ",
"@ +       . . . . . . . . . . . . . L M N O P Q R S T T U V W W W W W X Y Z `  ...+.@.. . . . . . . . . . . . . . . . . . . . . ",
"@ +       . . . . . . . . . . . . #.$.%.&.*.=.-.;.>.,.'.).!.~.{.{.{.{.].^./.(._.:.<.[.}.  . . . . . . . . . . . . . . . . . . . ",
"+         . . . . . . . . . . . #.|.1.2.3.4.5.6.7.8.9.0.a.b.c.d.d.d.e.e.f.g.h.i.j.k.l.m.n.+ . . . . . . . . . . . . . . . . . . ",
"+       . . . . . . . . . . . . o.p.q.r.s.t.u.v.w.x.x.x.y.z.A.B.B.C.D.E.F.G.H.I.J.K.L.M.N.O.. . . . . . . . . . . . . . . . . . ",
"        . . . . . . . . . . . . P.Q.R.S.T.U.V.W.w.w.w.w.X.Y.Z.`. +.+++@+#+$+%+&+*+=+-+;+>+,+. . . . . . . . . . . . . . . . . . ",
"      . . . . . . . . . . . . . 0 '+)+!+J.~+{+]+^+w.w.w./+(+_+:+<+:+[+}+|+1+2+3+4+5+6+7+8+. . . . . . . . . . . . . . . . . . . ",
"      . . . . . . . . . . . . . . + 9+0+a+J.b+c+d+^+w.w.e+f+g+h+i+[+j+k+l+m+n+*+5+o+p+q+. . . . . . . . . . . . . . . . . . . . ",
"    . . . . . . . . . . . . . . . . @ r+s+t+u+v+w+x+y+z+A+B+C+D+E+F+G+H+I+J+K+L+M+N+O+. . . . . . . . . . . . . . . . . . . . . ",
"    . . . . . . . . . . . . . . . . . + P+Q+R+S+T+U+V+W+W+X+Y+Z+`+ @.@+@@@#@$@%@&@*@. . . . . . . . . . . . . . . . . . . . . . ",
"  . . . . . . . . . . . . . . . . . . .   =@-@;@>@,@'@D.)@!@~@Z+Z+{@]@^@/@L+(@&@O+. . . . . . . . . . . . . . . . . . . . . . . ",
"  . . . . . . . . . . . . . . . . . . . . ^ _@:@<@[@}@|@1@2@~@Z+Z+3@4@5@6@7@8@9@. . . . . . . . . . . . . . . . . . . . . . . . ",
". . . . . . . . . . . . . . . . . . . . . . 0@a@b@<@c@d@e@f@g@Z+h@i@j@k@7@&@l@. . . . . . . . . . . . . . . . . . . . . . . . . ",
". . . . . . . . . . . . . . . . . . . . . . . m@n@o@p@q@r@s@t@u@v@w@x@M+y@z@. . . . . . . . . . . . . . . . . . . . . . . . . . ",
". . . . . . . . . . . . . . . . . . . . . . . . m@A@B@C@D@E@F@G@H@I@J@K@L@. . . . . . . . . . . . . . . . . . . . . . . . . . . ",
". . . . . . . . . . . . . . . . . . . . . . . . .   r+M@N@O@P@Q@R@S@T@U@. . . . . . . . . . . . . . . . . . . . . . . . . . . . ",
". . . . . . . . . . . . . . . . . . . . . . . . . . V@W@X@Y@Z@`@ #.#+#. . . . . . . . . . . . . . . . . . . . . . . . . . . . . ",
". . . . . . . . . . . . . . . . . . . . . . . . . . . ^ r+@###$#%#&#. . . . . . . . . . . . . . . . . . . . . . . . . . . . . . ",
". . . . . . . . . . . . . . . . . . . . . . . . . . . . *#=#-#;#>#. . . . . . . . . . . . . . . . . . . . . . . . . . . . . . . ",
". . . . . . . . . . . . . . . . . . . . . . . . . . . . . @ ,#'#  . . . . . . . . . . . . . . . . . . . . . . . . . . . . . . . ",
". . . . . . . . . . . . . . . . . . . . . . . . . . . . . . . . . . . . . . . . . . . . . . . . . . . . . . . . . . . . . . . . ",
". . . . . . . . . . . . . . . . . . . . . . . . . . . . . . . . . . . . . . . . . . . . . . . . . . . . . . . . . . . . . . . . ",
". . . . . . . . . . . . . . . . . . . . . . . . . . . . . . . . . . . . . . . . . . . . . . . . . . . . . . . . . . . . . . . . ",
". . . . . . . . . . . . . . . . . . . . . . . . . . . . . . . . . . . . . . . . . . . . . . . . . . . . . . . . . . . . . . . . ",
". . . . . . . . . . . . . . . . . . . . . . . . . . . . . . . . . . . . . . . . . . . . . . . . . . . . . . . . . . . . . . . . ",
". . . . . . . . . . . . . . . . . . . . . . . . . . . . . . . . . . . . . . . . . . . . . . . . . . . . . . . . . . . . . . . . ",
". . . . . . . . . . . . . . . . . . . . . . . . . . . . . . . . . . . . . . . . . . . . . . . . . . . . . . . . . . . . . . . . ",
". . . . . . . . . . . . . . . . . . . . . . . . . . . . . . . . . . . . . . . . . . . . . . . . . . . . . . . . . . . . . . . . ",
". . . . . . . . . . . . . . . . . . . . . . . . . . . . . . . . . . . . . . . . . . . . . . . . . . . . . . . . . . . . . . . . ",
". . . . . . . . . . . . . . . . . . . . . . . . . . . . . . . . . . . . . . . . . . . . . . . . . . . . . . . . . . . . . . . . ",
". . . . . . . . . . . . . . . . . . . . . . . . . . . . . . . . . . . . . . . . . . . . . . . . . . . . . . . . . . . . . . . . ",
". . . . . . . . . . . . . . . . . . . . . . . . . . . . . . . . . . . . . . . . . . . . . . . . . . . . . . . . . . . . . . . . ",
". . . . . . . . . . . . . . . . . . . . . . . . . . . . . . . . . . . . . . . . . . . . . . . . . . . . . . . . . . . . . . . . ",
". . . . . . . . . . . . . . . . . . . . . . . .     . . . . . . . . . . . . . . . . . . . . . . . . . . . . . . . . . . . . . . ",
". . . . . . . . . . . . . . . . . . . . .               . . . . . . . . . . . . . . . . . . . . . . . . . . . . . . . . . . . . ",
". . . . . . . . . . . . . . . . . . .                   . . . . . . . . . . . . . . . . . . . . . . . . . . . . . . . . . . . . ",
". . . . . . . . . . . . . . . . . .                       . . . . . . . . . . . . . . . . . . . . . . . . . . . . . . . . . . . ",
". . . . . . . . . . . . . . . .                           . . . . . . . . . . . . . . . . . . . . . . . . . . . . . . . . . .   ",
". . . . . . . . . . . . . . .             + +             . . . . . . . . . . . . . . . . . . . . . . . . . . . . . . . . . .   ",
". . . . . . . . . . . . . .           + + + + +         . . . . . . . . . . . . . . . . . . . . . . . . . . . . . . . . . .     "};
