/* XPM */
static char * Image0016_xpm[] = {
"64 64 23 1",
" 	c #7F83FE",
".	c #8095FA",
"+	c #818EFC",
"@	c #8080FF",
"#	c #7580FA",
"$	c #8286FD",
"%	c #8E8EFA",
"&	c #8180FE",
"*	c #7979FB",
"=	c #8682FD",
"-	c #8E81FC",
";	c #8180FF",
">	c #9580FA",
",	c #797FFC",
"'	c #7C7EFD",
")	c #8B8BFB",
"!	c #8081FF",
"~	c #8081FE",
"{	c #7676FA",
"]	c #7E7CFD",
"^	c #7F79FC",
"/	c #8075FA",
"(	c #837FFE",
" ....+@@ ....+@@ ....+@@ ....+@@ ....+@@ ....+@@ ....+@@ ....+@@",
"#@@@@$%@#@@@@$%@#@@@@$%@#@@@@$%@#@@@@$%@#@@@@$%@#@@@@$%@#@@@@$%@",
"#@&@@*=-#@&@@*=-#@&@@*=-#@&@@*=-#@&@@*=-#@&@@*=-#@&@@*=-#@&@@*=-",
"#@;@@@@>#@;@@@@>#@;@@@@>#@;@@@@>#@;@@@@>#@;@@@@>#@;@@@@>#@;@@@@>",
"#@;@@@@>#@;@@@@>#@;@@@@>#@;@@@@>#@;@@@@>#@;@@@@>#@;@@@@>#@;@@@@>",
",')!!~@>,')!!~@>,')!!~@>,')!!~@>,')!!~@>,')!!~@>,')!!~@>,')!!~@>",
"@{]@@@@>@{]@@@@>@{]@@@@>@{]@@@@>@{]@@@@>@{]@@@@>@{]@@@@>@{]@@@@>",
"@@^////(@@^////(@@^////(@@^////(@@^////(@@^////(@@^////(@@^////(",
" ....+@@ ....+@@ ....+@@ ....+@@ ....+@@ ....+@@ ....+@@ ....+@@",
"#@@@@$%@#@@@@$%@#@@@@$%@#@@@@$%@#@@@@$%@#@@@@$%@#@@@@$%@#@@@@$%@",
"#@&@@*=-#@&@@*=-#@&@@*=-#@&@@*=-#@&@@*=-#@&@@*=-#@&@@*=-#@&@@*=-",
"#@;@@@@>#@;@@@@>#@;@@@@>#@;@@@@>#@;@@@@>#@;@@@@>#@;@@@@>#@;@@@@>",
"#@;@@@@>#@;@@@@>#@;@@@@>#@;@@@@>#@;@@@@>#@;@@@@>#@;@@@@>#@;@@@@>",
",')!!~@>,')!!~@>,')!!~@>,')!!~@>,')!!~@>,')!!~@>,')!!~@>,')!!~@>",
"@{]@@@@>@{]@@@@>@{]@@@@>@{]@@@@>@{]@@@@>@{]@@@@>@{]@@@@>@{]@@@@>",
"@@^////(@@^////(@@^////(@@^////(@@^////(@@^////(@@^////(@@^////(",
" ....+@@ ....+@@ ....+@@ ....+@@ ....+@@ ....+@@ ....+@@ ....+@@",
"#@@@@$%@#@@@@$%@#@@@@$%@#@@@@$%@#@@@@$%@#@@@@$%@#@@@@$%@#@@@@$%@",
"#@&@@*=-#@&@@*=-#@&@@*=-#@&@@*=-#@&@@*=-#@&@@*=-#@&@@*=-#@&@@*=-",
"#@;@@@@>#@;@@@@>#@;@@@@>#@;@@@@>#@;@@@@>#@;@@@@>#@;@@@@>#@;@@@@>",
"#@;@@@@>#@;@@@@>#@;@@@@>#@;@@@@>#@;@@@@>#@;@@@@>#@;@@@@>#@;@@@@>",
",')!!~@>,')!!~@>,')!!~@>,')!!~@>,')!!~@>,')!!~@>,')!!~@>,')!!~@>",
"@{]@@@@>@{]@@@@>@{]@@@@>@{]@@@@>@{]@@@@>@{]@@@@>@{]@@@@>@{]@@@@>",
"@@^////(@@^////(@@^////(@@^////(@@^////(@@^////(@@^////(@@^////(",
" ....+@@ ....+@@ ....+@@ ....+@@ ....+@@ ....+@@ ....+@@ ....+@@",
"#@@@@$%@#@@@@$%@#@@@@$%@#@@@@$%@#@@@@$%@#@@@@$%@#@@@@$%@#@@@@$%@",
"#@&@@*=-#@&@@*=-#@&@@*=-#@&@@*=-#@&@@*=-#@&@@*=-#@&@@*=-#@&@@*=-",
"#@;@@@@>#@;@@@@>#@;@@@@>#@;@@@@>#@;@@@@>#@;@@@@>#@;@@@@>#@;@@@@>",
"#@;@@@@>#@;@@@@>#@;@@@@>#@;@@@@>#@;@@@@>#@;@@@@>#@;@@@@>#@;@@@@>",
",')!!~@>,')!!~@>,')!!~@>,')!!~@>,')!!~@>,')!!~@>,')!!~@>,')!!~@>",
"@{]@@@@>@{]@@@@>@{]@@@@>@{]@@@@>@{]@@@@>@{]@@@@>@{]@@@@>@{]@@@@>",
"@@^////(@@^////(@@^////(@@^////(@@^////(@@^////(@@^////(@@^////(",
" ....+@@ ....+@@ ....+@@ ....+@@ ....+@@ ....+@@ ....+@@ ....+@@",
"#@@@@$%@#@@@@$%@#@@@@$%@#@@@@$%@#@@@@$%@#@@@@$%@#@@@@$%@#@@@@$%@",
"#@&@@*=-#@&@@*=-#@&@@*=-#@&@@*=-#@&@@*=-#@&@@*=-#@&@@*=-#@&@@*=-",
"#@;@@@@>#@;@@@@>#@;@@@@>#@;@@@@>#@;@@@@>#@;@@@@>#@;@@@@>#@;@@@@>",
"#@;@@@@>#@;@@@@>#@;@@@@>#@;@@@@>#@;@@@@>#@;@@@@>#@;@@@@>#@;@@@@>",
",')!!~@>,')!!~@>,')!!~@>,')!!~@>,')!!~@>,')!!~@>,')!!~@>,')!!~@>",
"@{]@@@@>@{]@@@@>@{]@@@@>@{]@@@@>@{]@@@@>@{]@@@@>@{]@@@@>@{]@@@@>",
"@@^////(@@^////(@@^////(@@^////(@@^////(@@^////(@@^////(@@^////(",
" ....+@@ ....+@@ ....+@@ ....+@@ ....+@@ ....+@@ ....+@@ ....+@@",
"#@@@@$%@#@@@@$%@#@@@@$%@#@@@@$%@#@@@@$%@#@@@@$%@#@@@@$%@#@@@@$%@",
"#@&@@*=-#@&@@*=-#@&@@*=-#@&@@*=-#@&@@*=-#@&@@*=-#@&@@*=-#@&@@*=-",
"#@;@@@@>#@;@@@@>#@;@@@@>#@;@@@@>#@;@@@@>#@;@@@@>#@;@@@@>#@;@@@@>",
"#@;@@@@>#@;@@@@>#@;@@@@>#@;@@@@>#@;@@@@>#@;@@@@>#@;@@@@>#@;@@@@>",
",')!!~@>,')!!~@>,')!!~@>,')!!~@>,')!!~@>,')!!~@>,')!!~@>,')!!~@>",
"@{]@@@@>@{]@@@@>@{]@@@@>@{]@@@@>@{]@@@@>@{]@@@@>@{]@@@@>@{]@@@@>",
"@@^////(@@^////(@@^////(@@^////(@@^////(@@^////(@@^////(@@^////(",
" ....+@@ ....+@@ ....+@@ ....+@@ ....+@@ ....+@@ ....+@@ ....+@@",
"#@@@@$%@#@@@@$%@#@@@@$%@#@@@@$%@#@@@@$%@#@@@@$%@#@@@@$%@#@@@@$%@",
"#@&@@*=-#@&@@*=-#@&@@*=-#@&@@*=-#@&@@*=-#@&@@*=-#@&@@*=-#@&@@*=-",
"#@;@@@@>#@;@@@@>#@;@@@@>#@;@@@@>#@;@@@@>#@;@@@@>#@;@@@@>#@;@@@@>",
"#@;@@@@>#@;@@@@>#@;@@@@>#@;@@@@>#@;@@@@>#@;@@@@>#@;@@@@>#@;@@@@>",
",')!!~@>,')!!~@>,')!!~@>,')!!~@>,')!!~@>,')!!~@>,')!!~@>,')!!~@>",
"@{]@@@@>@{]@@@@>@{]@@@@>@{]@@@@>@{]@@@@>@{]@@@@>@{]@@@@>@{]@@@@>",
"@@^////(@@^////(@@^////(@@^////(@@^////(@@^////(@@^////(@@^////(",
" ....+@@ ....+@@ ....+@@ ....+@@ ....+@@ ....+@@ ....+@@ ....+@@",
"#@@@@$%@#@@@@$%@#@@@@$%@#@@@@$%@#@@@@$%@#@@@@$%@#@@@@$%@#@@@@$%@",
"#@&@@*=-#@&@@*=-#@&@@*=-#@&@@*=-#@&@@*=-#@&@@*=-#@&@@*=-#@&@@*=-",
"#@;@@@@>#@;@@@@>#@;@@@@>#@;@@@@>#@;@@@@>#@;@@@@>#@;@@@@>#@;@@@@>",
"#@;@@@@>#@;@@@@>#@;@@@@>#@;@@@@>#@;@@@@>#@;@@@@>#@;@@@@>#@;@@@@>",
",')!!~@>,')!!~@>,')!!~@>,')!!~@>,')!!~@>,')!!~@>,')!!~@>,')!!~@>",
"@{]@@@@>@{]@@@@>@{]@@@@>@{]@@@@>@{]@@@@>@{]@@@@>@{]@@@@>@{]@@@@>",
"@@^////(@@^////(@@^////(@@^////(@@^////(@@^////(@@^////(@@^////("};
