/* XPM */
static char * perso_xpm[] = {
"64 64 18 1",
" 	c #5C17C7",
".	c #31425A",
"+	c #3131B5",
"@	c #6363EF",
"#	c #9494FF",
"$	c #39314A",
"%	c #FFFFBD",
"&	c #A57331",
"*	c #F7D694",
"=	c #E7B563",
"-	c #5294E7",
";	c #E7F7FF",
">	c #84C6FF",
",	c #EF3921",
"'	c #FFFFFF",
")	c #E7A552",
"!	c #5C18C7",
"~	c #5C19C7",
"                                                                ",
"                                                                ",
"                                                                ",
"                         ....         .... ..                   ",
"                        .+@@+.       .+@@+.++.                  ",
"                       .+@@@++...   .+@@@@@@#+.                 ",
"                       .+@@@@+#@+. .++++@@#@@#.                 ",
"                      .+++@@@@++@#.#+++@@@#+@@+$                ",
"                      .##+++@@@@+###++++@@@#+@#+..              ",
"                       .###+++@@@+++##++++$#$@@..%.             ",
"                     ..+##+$$$$$+@#####++$+$@..%%.              ",
"                    .++@##$&&&&&.+@$$$$#$#+..%%...              ",
"                    .+++@$&*===.$.$$===.++.....++.              ",
"                   .++$$$&*****.-.&&&$*=..&&&$+++.              ",
"                   .+$$&******&.-.=&&$*$;..&$+...               ",
"                    $&$**==&=*.>>.==&$*=;.&&$+.                 ",
"                   $&*$===&$&*.>>.&=&&**===$++.  .              ",
"                  $&**$=&$$$=.>>.=*&*&$****$..  .,.             ",
"                  $**=$&$ $&=.'>.=*&*&$*,&$$    .).             ",
"                  $**=$$ ..&.>''..***&&$$$      .%.             ",
"                  $&*=$ .-$.''''..&**=&&&$      .%.             ",
"                   $=*&$$--->''>'.&*=&$&$       .).             ",
"                   $&*=$----->>>>..*&$&&$       .,.             ",
"                   $&==$--------$'>.&$&$        ...             ",
"                    $&=$------$$->'>.$&$        .*.             ",
"                    $&$$--------->>>.&$        .&.              ",
"                   .-$>'$--------...&&$        .*.              ",
"                   .>$->$------$$$$$$&$        .*.              ",
"                  .->$$$$$$$$$$&&&&&&$$$       .*.              ",
"                  .>>-$&*$$$&&&&=====&&&$      .*.              ",
"                 .->>.$&**$..........=&&$      .*.              ",
"                 .>>-.$&=$***&*.,)%),.=&$$$$  .*.               ",
"                 .>>-.$&&&$..........==&$)))$$$$.               ",
"                 .----.$$$$$===&&&$&*=&$,)))$**$$$              ",
"                  .--.&===&&&&&&&$&*==&$,,,,$$=$**$             ",
"                  .--.&&&&&&&&&&$&=*=&$ $$$$=$=$=$              ",
"                   ..&&&&&&&&$$$&=*==&$    $&&$&$               ",
"                    $$$$$$$$$&&$==*=&$      ..*$                ",
"                        $&&&&&&$=*==&$.     ....                ",
"                         $&&&&&$=*=&$  ....                     ",
"                          $&&&$&*==&$                           ",
"               ...        $&&&$&*=&$                            ",
"             ..---...      $&&$=*=&$                            ",
"            .>$>''>--.$$$$  $&$=*=&$                            ",
"            ..$-->'''>.&&&$$$&$==&$&$                           ",
"           .  .--------.&&&&&$&==&$=$                           ",
"              .--------.&&&&&$&=&$&=$                           ",
"             .----.....$&&&&&..&&$&=&$                          ",
"             .---.      $$&&.--.&$&==$                          ",
"             .---.        $&.>--.&&==&$                         ",
"             .---.         .-'--.&&&==$                         ",
"              .--.         .-'-.&&&&&&$                         ",
"               .--.        .-'-.$$&&&$                          ",
"                ...        .-'>.  $$$                           ",
"                           .->'-.                               ",
"                          .---'-.                               ",
"                          .---->-.                              ",
"                          .----'>-.                             ",
"                          .-$.--''>..                           ",
"                          .-. .---''-.                          ",
"                           ..  .-----.                          ",
"                            .   ......                         !",
"                                                               !",
"                                                              !~"};
