/* XPM */
static char * perso2_xpm[] = {
"64 64 734 2",
"  	c #5901CF",
". 	c #5900D0",
"+ 	c #5801CF",
"@ 	c #5801CE",
"# 	c #5800CD",
"$ 	c #5700CD",
"% 	c #5700CC",
"& 	c #560CC4",
"* 	c #46419C",
"= 	c #6D6CE2",
"- 	c #41449E",
"; 	c #4447A1",
"> 	c #3A3687",
", 	c #4C19B0",
"' 	c #4D27A5",
") 	c #5027A8",
"! 	c #3F2C87",
"~ 	c #4745D2",
"{ 	c #5D58F9",
"] 	c #716DFF",
"^ 	c #7672D2",
"/ 	c #665FF8",
"( 	c #3A4383",
"_ 	c #A3AB85",
": 	c #533F93",
"< 	c #5706C8",
"[ 	c #3C3386",
"} 	c #3A3681",
"| 	c #48239F",
"1 	c #4443A2",
"2 	c #261FB7",
"3 	c #312AC7",
"4 	c #4748C2",
"5 	c #5E62A6",
"6 	c #596391",
"7 	c #A2AA94",
"8 	c #4F5967",
"9 	c #4919AC",
"0 	c #5609C7",
"a 	c #383285",
"b 	c #4E4BE1",
"c 	c #544FEB",
"d 	c #6E71CD",
"e 	c #9E9BFF",
"f 	c #6A68EE",
"g 	c #5D5BE0",
"h 	c #43499A",
"i 	c #6E6FE4",
"j 	c #5C6B77",
"k 	c #545962",
"l 	c #3D36AC",
"m 	c #43488D",
"n 	c #4B1CA9",
"o 	c #2F329A",
"p 	c #433DDB",
"q 	c #6966FF",
"r 	c #6B67FF",
"s 	c #6562E3",
"t 	c #6F69D7",
"u 	c #3D458C",
"v 	c #5359C5",
"w 	c #4848C3",
"x 	c #403D46",
"y 	c #41374F",
"z 	c #918EFF",
"A 	c #505291",
"B 	c #47249C",
"C 	c #422B8E",
"D 	c #5356AD",
"E 	c #2C23BF",
"F 	c #312BC1",
"G 	c #5B57EF",
"H 	c #5854DE",
"I 	c #262172",
"J 	c #59545C",
"K 	c #676660",
"L 	c #656A6A",
"M 	c #334150",
"N 	c #A77E30",
"O 	c #473E7D",
"P 	c #9B99FF",
"Q 	c #4B518E",
"R 	c #5802CF",
"S 	c #4A1FA8",
"T 	c #5800CE",
"U 	c #5803CD",
"V 	c #422796",
"W 	c #3C3DB5",
"X 	c #6462EA",
"Y 	c #9795FF",
"Z 	c #6A68EF",
"` 	c #302A96",
" .	c #302A73",
"..	c #413A96",
"+.	c #6865C6",
"@.	c #656CD1",
"#.	c #B4AB7F",
"$.	c #C7C6B3",
"%.	c #B0985F",
"&.	c #AA8647",
"*.	c #6564D4",
"=.	c #6866EB",
"-.	c #393384",
";.	c #482897",
">.	c #964A39",
",.	c #5410C0",
"'.	c #3C4397",
").	c #5F58FF",
"!.	c #726EFF",
"~.	c #7D7BFD",
"{.	c #7C77CE",
"].	c #4743A3",
"^.	c #6764E1",
"/.	c #6A66C3",
"(.	c #5457E9",
"_.	c #363772",
":.	c #CAA654",
"<.	c #FEE58C",
"[.	c #FEE68C",
"}.	c #AC905A",
"|.	c #6564C8",
"1.	c #3C338F",
"2.	c #5706C9",
"3.	c #473091",
"4.	c #B3AA7C",
"5.	c #5700CA",
"6.	c #540FBF",
"7.	c #5359AF",
"8.	c #817DFF",
"9.	c #524D9D",
"0.	c #494382",
"a.	c #6761B0",
"b.	c #5758B5",
"c.	c #48628C",
"d.	c #4D5774",
"e.	c #656367",
"f.	c #A37B2C",
"g.	c #8F6729",
"h.	c #D3BF85",
"i.	c #D27F4C",
"j.	c #3D2D80",
"k.	c #6C6BE8",
"l.	c #403489",
"m.	c #472F93",
"n.	c #B2B589",
"o.	c #5600C9",
"p.	c #5706CA",
"q.	c #4C3D99",
"r.	c #555294",
"s.	c #504DC1",
"t.	c #8484FE",
"u.	c #69545A",
"v.	c #A9915A",
"w.	c #7B8F9A",
"x.	c #50729B",
"y.	c #CDAF67",
"z.	c #FACA5E",
"A.	c #906E37",
"B.	c #7B603D",
"C.	c #3D3A85",
"D.	c #1C17BF",
"E.	c #7875F8",
"F.	c #5B5AD8",
"G.	c #392D86",
"H.	c #472C90",
"I.	c #A15135",
"J.	c #5600CA",
"K.	c #442398",
"L.	c #3A3BB1",
"M.	c #8583F9",
"N.	c #675256",
"O.	c #D6B157",
"P.	c #FEF193",
"Q.	c #867F6D",
"R.	c #4F86CC",
"S.	c #747366",
"T.	c #AC8D6C",
"U.	c #9D744B",
"V.	c #C5952D",
"W.	c #816957",
"X.	c #433665",
"Y.	c #433FCC",
"Z.	c #716FE7",
"`.	c #382B86",
" +	c #462D91",
".+	c #917250",
"++	c #5601C8",
"@+	c #540DBD",
"#+	c #3C2F81",
"$+	c #6C5861",
"%+	c #D7B15B",
"&+	c #FEE594",
"*+	c #EEC160",
"=+	c #BBA165",
"-+	c #7489A3",
";+	c #A3B2C2",
">+	c #765E5A",
",+	c #86604E",
"'+	c #D0BA75",
")+	c #E8BE5E",
"!+	c #A7884A",
"~+	c #342E9E",
"{+	c #6868E4",
"]+	c #3A2B89",
"^+	c #918058",
"/+	c #5501C8",
"(+	c #47217D",
"_+	c #AD894C",
":+	c #F7D47C",
"<+	c #F5CD72",
"[+	c #D9A73F",
"}+	c #7A5934",
"|+	c #B09565",
"1+	c #999C9C",
"2+	c #ACB6BE",
"3+	c #949670",
"4+	c #797769",
"5+	c #F7D77B",
"6+	c #767368",
"7+	c #B39761",
"8+	c #59495B",
"9+	c #2927BC",
"0+	c #3C3189",
"a+	c #452995",
"b+	c #AF9F75",
"c+	c #48237C",
"d+	c #B38F4E",
"e+	c #FEE083",
"f+	c #EABC58",
"g+	c #A47B38",
"h+	c #4D3749",
"i+	c #79552E",
"j+	c #D5A138",
"k+	c #555D6D",
"l+	c #8F5053",
"m+	c #AF4B2B",
"n+	c #2C4567",
"o+	c #5A5753",
"p+	c #9EA1AA",
"q+	c #7D776F",
"r+	c #AE8B5B",
"s+	c #2D2D59",
"t+	c #5212BD",
"u+	c #540AC4",
"v+	c #7B717F",
"w+	c #71677F",
"x+	c #AF915D",
"y+	c #F2CA6B",
"z+	c #A37F46",
"A+	c #593C5D",
"B+	c #451E8C",
"C+	c #5804CC",
"D+	c #4B3E5E",
"E+	c #796139",
"F+	c #49505B",
"G+	c #535054",
"H+	c #7B8CAE",
"I+	c #9ECDFC",
"J+	c #5B7496",
"K+	c #DBF5FF",
"L+	c #476088",
"M+	c #C0A062",
"N+	c #A68243",
"O+	c #491F8E",
"P+	c #4C2299",
"Q+	c #A29474",
"R+	c #40367A",
"S+	c #A0804E",
"T+	c #F3C763",
"U+	c #896D48",
"V+	c #411988",
"W+	c #343B66",
"X+	c #273258",
"Y+	c #9E8A5A",
"Z+	c #5B78A1",
"`+	c #61A6FF",
" @	c #527DB9",
".@	c #5082CC",
"+@	c #63A9FF",
"@@	c #4676BD",
"#@	c #B18E47",
"$@	c #FDD469",
"%@	c #655555",
"&@	c #493076",
"*@	c #4C3276",
"=@	c #472E71",
"-@	c #4F3873",
";@	c #41296E",
">@	c #A98956",
",@	c #9A876F",
"'@	c #807073",
")@	c #481E89",
"!@	c #A27A39",
"~@	c #F9CC67",
"{@	c #9C7B48",
"]@	c #4B1B93",
"^@	c #412388",
"/@	c #6A6665",
"(@	c #908C78",
"_@	c #457BD1",
":@	c #5695F5",
"<@	c #528CE8",
"[@	c #5798FA",
"}@	c #4876C5",
"|@	c #362D72",
"1@	c #6B4F3A",
"2@	c #E7B243",
"3@	c #7F6A58",
"4@	c #F1CC77",
"5@	c #CEB373",
"6@	c #88503F",
"7@	c #FB8422",
"8@	c #8D513E",
"9@	c #E0C070",
"0@	c #9B8360",
"a@	c #987D59",
"b@	c #471E88",
"c@	c #A97F3F",
"d@	c #AE8B51",
"e@	c #5051AC",
"f@	c #4C1A9E",
"g@	c #462683",
"h@	c #655550",
"i@	c #4E77BD",
"j@	c #5797F8",
"k@	c #5692ED",
"l@	c #5896F5",
"m@	c #4D80CE",
"n@	c #4F14A9",
"o@	c #553D5A",
"p@	c #50424F",
"q@	c #A87A2D",
"r@	c #8B7039",
"s@	c #843136",
"t@	c #7F2B43",
"u@	c #4A2956",
"v@	c #5B4E57",
"w@	c #514556",
"x@	c #6D5032",
"y@	c #433465",
"z@	c #523D39",
"A@	c #607CC4",
"B@	c #5461B3",
"C@	c #6657AE",
"D@	c #A66F00",
"E@	c #4B4F70",
"F@	c #5596F8",
"G@	c #5692EE",
"H@	c #5898F8",
"I@	c #4A79C0",
"J@	c #4C1BA9",
"K@	c #3B307C",
"L@	c #44228A",
"M@	c #451F86",
"N@	c #462187",
"O@	c #5508C4",
"P@	c #3E3C93",
"Q@	c #474EAF",
"R@	c #471F8D",
"S@	c #402C88",
"T@	c #5211B6",
"U@	c #3C2876",
"V@	c #554F56",
"W@	c #896A8F",
"X@	c #817562",
"Y@	c #415A96",
"Z@	c #5795F4",
"`@	c #5693EF",
" #	c #5691EC",
".#	c #40408E",
"+#	c #5608C8",
"@#	c #4E1BB1",
"##	c #4923A3",
"$#	c #3B3B79",
"%#	c #3C3E7B",
"&#	c #452A96",
"*#	c #4F1AB1",
"=#	c #4E2E9C",
"-#	c #9D8E6F",
";#	c #7B5933",
">#	c #53576F",
",#	c #4D8CEE",
"'#	c #558FE8",
")#	c #3F3486",
"!#	c #5312BD",
"~#	c #412E8B",
"{#	c #3E3184",
"]#	c #462897",
"^#	c #4E1BB0",
"/#	c #5A5A71",
"(#	c #9B8A7E",
"_#	c #314072",
":#	c #5490EF",
"<#	c #83BBFF",
"[#	c #5996F0",
"}#	c #5592EF",
"|#	c #558FE9",
"1#	c #3F3687",
"2#	c #442B92",
"3#	c #5116B7",
"4#	c #47259C",
"5#	c #4D1DAC",
"6#	c #4D1DAE",
"7#	c #3A347A",
"8#	c #412495",
"9#	c #4865B2",
"0#	c #5B98F7",
"a#	c #CCE0FD",
"b#	c #5797F2",
"c#	c #5591EF",
"d#	c #5590EA",
"e#	c #5018B6",
"f#	c #452996",
"g#	c #5312BE",
"h#	c #432C8F",
"i#	c #560BC5",
"j#	c #432C91",
"k#	c #3F3186",
"l#	c #550EC2",
"m#	c #452894",
"n#	c #4E87E0",
"o#	c #73A4F4",
"p#	c #DCEBFF",
"q#	c #7CB5FE",
"r#	c #4776BE",
"s#	c #4873B6",
"t#	c #40398F",
"u#	c #5116B9",
"v#	c #422D8C",
"w#	c #432891",
"x#	c #538CE2",
"y#	c #AAD9FF",
"z#	c #EDFBFF",
"A#	c #84BCFD",
"B#	c #4985DF",
"C#	c #41659A",
"D#	c #3E3484",
"E#	c #432992",
"F#	c #4372BE",
"G#	c #5B96DF",
"H#	c #6F96C1",
"I#	c #5F6262",
"J#	c #495366",
"K#	c #333E5C",
"L#	c #3B337A",
"M#	c #46248F",
"N#	c #6A5538",
"O#	c #705832",
"P#	c #A8894A",
"Q#	c #FDD161",
"R#	c #AA8345",
"S#	c #2F274D",
"T#	c #5704CA",
"U#	c #5A4048",
"V#	c #D9A12C",
"W#	c #F6C761",
"X#	c #FADC8F",
"Y#	c #D8A946",
"Z#	c #543D41",
"`#	c #4A1D95",
" $	c #946F36",
".$	c #EBBF5D",
"+$	c #FADD91",
"@$	c #F2C868",
"#$	c #6B534C",
"$$	c #5604C8",
"%$	c #520EB9",
"&$	c #6F5134",
"*$	c #EABD59",
"=$	c #FADE94",
"-$	c #FDDA7E",
";$	c #765D54",
">$	c #510FB5",
",$	c #70513D",
"'$	c #E2B14B",
")$	c #F5D281",
"!$	c #FDD87D",
"~$	c #745B53",
"{$	c #452282",
"]$	c #A87C2F",
"^$	c #F5D079",
"/$	c #FDD97F",
"($	c #431D8A",
"_$	c #AA7E2F",
":$	c #F7D179",
"<$	c #FDD97D",
"[$	c #6F5856",
"}$	c #5608C4",
"|$	c #50316A",
"1$	c #8C6936",
"2$	c #E2B250",
"3$	c #FAD479",
"4$	c #8C6A45",
"5$	c #4D14A7",
"6$	c #520FB8",
"7$	c #70543A",
"8$	c #5B443A",
"9$	c #D1A03D",
"0$	c #F6D37D",
"a$	c #DAAA49",
"b$	c #482C70",
"c$	c #4B208F",
"d$	c #89642D",
"e$	c #6D5134",
"f$	c #B89049",
"g$	c #FDDF8D",
"h$	c #E9C26C",
"i$	c #4A2C74",
"j$	c #5607C6",
"k$	c #5E454E",
"l$	c #B78214",
"m$	c #7D5A2D",
"n$	c #987D5A",
"o$	c #FCD676",
"p$	c #DAAE53",
"q$	c #492B76",
"r$	c #431B8A",
"s$	c #A67D35",
"t$	c #CD9B35",
"u$	c #79562C",
"v$	c #997D57",
"w$	c #F7C354",
"x$	c #B58733",
"y$	c #442772",
"z$	c #540CBD",
"A$	c #694C4E",
"B$	c #E1B04B",
"C$	c #C2943A",
"D$	c #5C4236",
"E$	c #C49842",
"F$	c #F0BF57",
"G$	c #B38633",
"H$	c #442672",
"I$	c #520ABA",
"J$	c #967A53",
"K$	c #F0BD4F",
"L$	c #AC7E2C",
"M$	c #57413B",
"N$	c #D1A03F",
"O$	c #F2C86A",
"P$	c #CA9D43",
"Q$	c #472974",
"R$	c #4C2F6D",
"S$	c #CC9F45",
"T$	c #E1AF45",
"U$	c #654A38",
"V$	c #4D3C41",
"W$	c #D5A23B",
"X$	c #FBDB8D",
"Y$	c #E7BF66",
"Z$	c #4A2C75",
"`$	c #5A4263",
" %	c #F2C155",
".%	c #E0AD43",
"+%	c #62493B",
"@%	c #412278",
"#%	c #B8924B",
"$%	c #FEE18D",
"%%	c #E5BE68",
"&%	c #492B74",
"*%	c #543C69",
"=%	c #F0BE53",
"-%	c #B2832B",
";%	c #593C5C",
">%	c #4B11AC",
",%	c #94764E",
"'%	c #FBDA80",
")%	c #E5BE69",
"!%	c #4E14A9",
"~%	c #7C5B4A",
"{%	c #F3C051",
"]%	c #966F32",
"^%	c #4917A0",
"/%	c #7A5930",
"(%	c #F1C45F",
"_%	c #E7C06C",
":%	c #441E8B",
"<%	c #B1873D",
"[%	c #D19E3A",
"}%	c #74533D",
"|%	c #4F14AB",
"1%	c #550BBE",
"2%	c #66474C",
"3%	c #DCB053",
"4%	c #E9C36F",
"5%	c #4A2C76",
"6%	c #461A94",
"7%	c #CEA75A",
"8%	c #D09E35",
"9%	c #442D60",
"0%	c #421F82",
"a%	c #A97C2E",
"b%	c #EFCB79",
"c%	c #492D80",
"d%	c #5704C9",
"e%	c #4A2878",
"f%	c #D0A44D",
"g%	c #AE843A",
"h%	c #482481",
"i%	c #442379",
"j%	c #B1832E",
"k%	c #F2CE78",
"l%	c #573B69",
"m%	c #5508C3",
"n%	c #5409C0",
"o%	c #8E6F49",
"p%	c #F0B940",
"q%	c #664B39",
"r%	c #7E6050",
"s%	c #FBCB5C",
"t%	c #A6824A",
"u%	c #4A15A4",
"v%	c #471BA3",
"w%	c #6C5D4D",
"x%	c #CA9A3A",
"y%	c #593A5A",
"z%	c #65505E",
"A%	c #FDC851",
"B%	c #B18E54",
"C%	c #4B13A6",
"D%	c #4C1DAA",
"E%	c #466FB3",
"F%	c #5E91D3",
"G%	c #515C6D",
"H%	c #46209A",
"I%	c #5B4448",
"J%	c #F3BA40",
"K%	c #BA9454",
"L%	c #4D12AB",
"M%	c #452597",
"N%	c #3563AA",
"O%	c #B6D9FF",
"P%	c #78A2E0",
"Q%	c #412594",
"R%	c #4C2B6F",
"S%	c #997E44",
"T%	c #7E6B4F",
"U%	c #40258C",
"V%	c #452896",
"W%	c #5F83B8",
"X%	c #8BBFFF",
"Y%	c #485899",
"Z%	c #540EC1",
"`%	c #5524CA",
" &	c #3D70C3",
".&	c #437CD0",
"+&	c #3C5480",
"@&	c #5509C5",
"#&	c #385D97",
"$&	c #CCEAFF",
"%&	c #B4D2FF",
"&&	c #2F3B82",
"*&	c #4D1AAE",
"=&	c #6490CB",
"-&	c #9DD3FF",
";&	c #38528D",
">&	c #5803CE",
",&	c #403090",
"'&	c #649CE6",
")&	c #8BC1FF",
"!&	c #6D8EC4",
"~&	c #4620A1",
"{&	c #4C19AC",
"]&	c #648ABF",
"^&	c #CFE8FF",
"/&	c #36579A",
"(&	c #550CC2",
"_&	c #3B3F81",
":&	c #62A4FF",
"<&	c #B2D3FE",
"[&	c #A1CDFD",
"}&	c #435CA5",
"|&	c #5113B8",
"1&	c #4C1AAB",
"2&	c #4E79BE",
"3&	c #CBEBFF",
"4&	c #75A6EE",
"5&	c #3B2D87",
"6&	c #413B90",
"7&	c #4466A9",
"8&	c #426FC1",
"9&	c #60A2FC",
"0&	c #568EE2",
"a&	c #422D8B",
"b&	c #550CC1",
"c&	c #39388D",
"d&	c #9DC1F2",
"e&	c #A5C5F2",
"f&	c #383589",
"g&	c #5609C6",
"h&	c #4F17B1",
"i&	c #3E3E84",
"j&	c #5695F7",
"k&	c #5899FA",
"l&	c #4F83D3",
"m&	c #425A9A",
"n&	c #5116B6",
"o&	c #3B2C87",
"p&	c #7CACEE",
"q&	c #94C9FF",
"r&	c #4881DB",
"s&	c #423191",
"t&	c #5018B3",
"u&	c #4563A6",
"v&	c #5186D8",
"w&	c #5389DD",
"x&	c #4B79C1",
"y&	c #452693",
"z&	c #40338A",
"A&	c #5187DA",
"B&	c #5993ED",
"C&	c #76B0FF",
"D&	c #4C84DB",
"E&	c #422F93",
"F&	c #5311BC",
"G&	c #5115B6",
"H&	c #452697",
"I&	c #5116B8",
"J&	c #40388E",
"K&	c #4869AB",
"L&	c #3F4A72",
"M&	c #B0B9C4",
"N&	c #99D2FF",
"O&	c #629AE7",
"P&	c #4165A2",
"Q&	c #4D1DAD",
"R&	c #550EC3",
"S&	c #394375",
"T&	c #432490",
"U&	c #3B2E77",
"V&	c #ADB5BE",
"W&	c #ADCAE1",
"X&	c #4F83CF",
"Y&	c #3E3085",
"                . . . . . . . . . . . . . .                     . . . . . . . . . . . . . . . . . . . . . . . .     + @ @ # $ % ",
"                    . . . . . . . . . . . .                     . . . . . . . . . . . . . . . . . . . . . . . .       + @ @ # # ",
"                      . . . . . . . . . . .             & * = - ; > , ' ) . . . . . . . . . . . . . . . . . . .       + + @ @ @ ",
"                      . . . . . . . . . . .             ! ~ { ] ^ / ( _ : . . . . . . . . . . . . . . . . . . .         + + @ @ ",
"                      . . . . . . . . . . .     < [ } | 1 2 3 4 5 6 7 8 9 . . . . . . . . . . . . . . . . . . . .       + + + + ",
"+ + + + +               . . . . . . . . . .   0 a b c d e f g h i j k l m . . . . . . . . . . . . . . . . . . . .         + + + ",
"@ @ @ + + +             . . . . . . . . .     n o p q r s t u v w x y z A . . . . . . . . . . . . . . . . . . . .               ",
"@ @ @ @ + + +           . . . . . . . . . B C D E F G H I J K L M N O P Q . . . . . . R S . . . . . . . . . . . .               ",
"$ # T @ @ + +         . . . . . . . . U V W X Y Z `  ...+.@.#.$.%.&.*.=.-.. . . . . . ;.>.. . . . . . . . . . . . .             ",
"% $ # T @ + +         . . . . . . . . ,.'.).!.~.{.].^./.(._.:.<.[.}.|.1.2.. . . . . . 3.4.. . . . . . . . . . . . .             ",
"5.% $ # @ + +         . . . . . . . . 6.7.8.9.0.a.b.c.d.e.f.g.h.i.j.k.l.. . . . . . . m.n.. . . . . . . . . . . . .             ",
"o.5.% # @ + +         . . . . . . . . p.q.r.s.t.u.v.w.x.y.z.A.B.C.D.E.F.G.. . . . . . H.I.. . . . . . . . . . . . . .           ",
"o.J.% # @ + +         . . . . . . . . . K.L.M.N.O.P.Q.R.S.T.U.V.W.X.Y.Z.`.. . . . . .  +.+. . . . . . . . . . . . . . .       . ",
"++J.% # @ +         . . . . . . . . . . @+#+$+%+&+*+=+-+;+>+,+'+)+!+~+{+]+. . . . . .  +^+. . . . . . . . . . . . . . . . . . . ",
"/+J.% # @ +         . . . . . . . . . . (+_+:+<+[+}+|+1+2+3+4+5+6+7+8+9+0+. . . . . . a+b+. . . . . . . . . . . . . . . . . . . ",
"/+J.% # @ +         . . . . . . . . . c+d+e+f+g+h+i+j+k+l+m+n+o+p+q+r+s+t+. . . . . u+v+w+. . . . . . . . . . . . . . . . . . . ",
"/+J.$ @ @ +       . . . . . . . . . . x+y+z+A+B+C+D+E+F+G+H+I+J+K+L+M+N+O+. . . . . P+Q+R+. . . . . . . . . . . . . . . . . . . ",
"++5.$ @ +         . . . . . . . . . . S+T+U+V+  . W+X+Y+Z+`+ @.@+@@@#@$@%@&@*@=@-@;@>@,@'@. . . . . . . . . . . . . . . . . . . ",
"o.% # @ +         . . . . . . . . . . )@!@~@{@]@. ^@/@(@_@:@<@[@}@|@1@2@3@4@5@6@7@8@9@0@a@. . . . . . . . . . . . . . . . . . . ",
"J.% @ + +       . . . . . . . . . . . . b@c@d@e@f@g@h@i@j@k@l@m@B 2.n@o@p@q@r@s@t@u@v@w@x@. . . . . . . . . . . . . . . . . . . ",
"5.$ @ +         . . . . . . . . . . . . . y@z@A@B@C@D@E@F@G@H@I@J@. . . K@L@M@N@O@. P@Q@R@. . . . . . . . . . . . . . . . . . . ",
"% # @ +       . . . . . . . . . . . . . 0 S@T@U@V@W@X@Y@Z@`@ #.#+#. . . @###. . . . $#%#2.. . . . . . . . . . . . . . . . . . . ",
"$ @ +         . . . . . . . . . . . . . &#*#. =#-#;#>#,#`@`@'#)#. . . . !#~#. . . . {#. . . . . . . . . . . . . . . . . . . . . ",
"# @ +       . . . . . . . . . . . . . . ]#^#. /#(#_#:#<#[#}#|#1#. . . . U 2#3#. . 4#5#. . . . . . . . . . . . . . . . . . . . . ",
"@ + +       . . . . . . . . . . . . . . a+6#U 7#8#9#0#a#b#c#d#1#. . . . . e#f#U g#h#i#. . . . . . . . . . . . . . . . . . . . . ",
"@ +       . . . . . . . . . . . . . . . 0 j#k#l#m#n#o#p#q#r#s#t#. . . . . . u#k#v#0 . . . . . . . . . . . . . . . . . . . . . . ",
"@ +       . . . . . . . . . . . . . . . . . . . w#x#y#z#A#B#C#D#. . . . . . . . . . . . . . . . . . . . . . . . . . . . . . . . ",
"+         . . . . . . . . . . . . . . . . . . . E#F#G#H#I#J#K#L#. . . . . . . . . . . . . . . . . . . . . . . . . . . . . . . . ",
"+       . . . . . . . . . . . . . . . . . . . . M#N#O#P#Q#R#S#5#. . . . . . . . . . . . . . . . . . . . . . . . . . . . . . . . ",
"        . . . . . . . . . . . . . . . . . . . . T#U#V#W#X#Y#Z#@ . . . . . . . . . . . . . . . . . . . . . . . . . . . . . . . . ",
"      . . . . . . . . . . . . . . . . . . . . . . `# $.$+$@$#$$$. . . . . . . . . . . . . . . . . . . . . . . . . . . . . . . . ",
"      . . . . . . . . . . . . . . . . . . . . . . %$&$*$=$-$;$$$. . . . . . . . . . . . . . . . . . . . . . . . . . . . . . . . ",
"    . . . . . . . . . . . . . . . . . . . . . . . >$,$'$)$!$~$$$. . . . . . . . . . . . . . . . . . . . . . . . . . . . . . . . ",
"    . . . . . . . . . . . . . . . . . . . . . . .   {$]$^$/$~$$$. . . . . . . . . . . . . . . . . . . . . . . . . . . . . . . . ",
"  . . . . . . . . . . . . . . . . . . . . . . . . . ($_$:$<$[$@ . . . . . . . . . . . . . . . . . . . . . . . . . . . . . . . . ",
"  . . . . . . . . . . . . . . . . . . . . . . . . }$|$1$2$3$4$5$. . . . . . . . . . . . . . . . . . . . . . . . . . . . . . . . ",
". . . . . . . . . . . . . . . . . . . . . . . . . 6$7$8$9$0$a$b$. . . . . . . . . . . . . . . . . . . . . . . . . . . . . . . . ",
". . . . . . . . . . . . . . . . . . . . . . . . . c$d$e$f$g$h$i$. . . . . . . . . . . . . . . . . . . . . . . . . . . . . . . . ",
". . . . . . . . . . . . . . . . . . . . . . . . j$k$l$m$n$o$p$q$. . . . . . . . . . . . . . . . . . . . . . . . . . . . . . . . ",
". . . . . . . . . . . . . . . . . . . . . . . . r$s$t$u$v$w$x$y$. . . . . . . . . . . . . . . . . . . . . . . . . . . . . . . . ",
". . . . . . . . . . . . . . . . . . . . . . . z$A$B$C$D$E$F$G$H$. . . . . . . . . . . . . . . . . . . . . . . . . . . . . . . . ",
". . . . . . . . . . . . . . . . . . . . . . . I$J$K$L$M$N$O$P$Q$. . . . . . . . . . . . . . . . . . . . . . . . . . . . . . . . ",
". . . . . . . . . . . . . . . . . . . . . . . R$S$T$U$V$W$X$Y$Z$. . . . . . . . . . . . . . . . . . . . . . . . . . . . . . . . ",
". . . . . . . . . . . . . . . . . . . . . . . `$ %.%+%@%#%$%%%&%. . . . . . . . . . . . . . . . . . . . . . . . . . . . . . . . ",
". . . . . . . . . . . . . . . . . . . . . . . *%=%-%;%>%,%'%)%&%. . . . . . . . . . . . . . . . . . . . . . . . . . . . . . . . ",
". . . . . . . . . . . . . . . . . . . . . . !%~%{%]%^%%$/%(%_%&%. . . . . . . . . . . . . . . . . . . . . . . . . . . . . . . . ",
". . . . . . . . . . . . . . . . . . . . . . :%<%[%}%|%1%2%3%4%5%. . . . . . . . . . . . . . . . . . . . . . . . . . . . . . . . ",
". . . . . . . . . . . . . . . . . . . . . . 6%7%8%9%. . 0%a%b%c%. . . . . . . . . . . . . . . . . . . . . . . . . . . . . . . . ",
". . . . . . . . . . . . . . . . . . . . . d%e%f%g%h%. . i%j%k%l%m%. . . . . . . . . . . . . . . . . . . . . . . . . . . . . . . ",
". . . . . . . . . . . . . . . . . . . . . n%o%p%q%m%. . >$r%s%t%u%. . . . . . . . . . . . . . . . . . . . . . . . . . . . . . . ",
". . . . . . . . . . . . . . . . . . . . . v%w%x%y%O@. . . z%A%B%C%. . . . . . . . . . . . . . . . . . . . . . . . . . . . . . . ",
". . . . . . . . . . . . . . . . . . . . D%E%F%G%H%. . . + I%J%K%L%. . . . . . . . . . . . . . . . . . . . . . . . . . . . . . . ",
". . . . . . . . . . . . . . . . . . . . M%N%O%P%Q%. . .   R%S%T%U%R . . . . . . . . . . . . . . . . . . . . . . . . . . . . . . ",
". . . . . . . . . . . . . . . . . . . + V%W%X%Y%Z%. . . . `% &.&+&p.. . . . . . . . . . . . . . . . . . . . . . . . . . . . . . ",
". . . . . . . . . . . . . . . . . . . @&#&$&%&&&. . . . . *&=&-&;&>&. . . . . . . . . . . . . . . . . . . . . . . . . . . . . . ",
". . . . . . . . . . . . . . . . . . . ,&'&)&!&~&. . . . . {&]&^&/&(&. . . . . . . . . . . . . . . . . . . . . . . . . . . . . . ",
". . . . . . . . . . . . . . . . . . . _&:&<&[&}&|&. . . . 1&2&3&4&5&. . . . . . . . . . . . . . . . . . . . . . . . . . . . . . ",
". . . . . . . . . . . . . . . . . . . 6&7&8&9&0&a&b&. . . 2.c&d&e&f&. . . . . . . . . . . . . . . . . . . . . . . . . . . . . . ",
". . . . . . . . . . . . . . . . . . . g&h&i&j&k&l&m&n&  . . o&p&q&r&s&. . . . . . . . . . . . . . . . . . . . . . . . . . . . . ",
". . . . . . . . . . . . . . . . . . .     t&u&v&w&x&y&  . . z&A&B&C&D&E&F&. . . . . . . . . . . . . . . . . . . . . . . . . . . ",
". . . . . . . . . . . . . . . . . .         G&M%M%H&I&    . J&K&L&M&N&O&P&Q&. . . . . . . . . . . . . . . . . . . . . . . . . . ",
". . . . . . . . . . . . . . . .                           . R&S&T&U&V&W&X&Y&. . . . . . . . . . . . . . . . . . . . . . . . .   ",
". . . . . . . . . . . . . . .             + +             . . . . . . . . . . . . . . . . . . . . . . . . . . . . . . . . . .   ",
". . . . . . . . . . . . . .           + + + + +         . . . . . . . . . . . . . . . . . . . . . . . . . . . . . . . . . .     "};
